ZhizhuoUp/RTDE_Python_Client_Library_Zhizhuo/examples/robot_data.csv
timestamp target_q_0 target_q_1 target_q_2 target_q_3 target_q_4 target_q_5 target_qd_0 target_qd_1 target_qd_2 target_qd_3 target_qd_4 target_qd_5 target_qdd_0 target_qdd_1 target_qdd_2 target_qdd_3 target_qdd_4 target_qdd_5 target_current_0 target_current_1 target_current_2 target_current_3 target_current_4 target_current_5 target_moment_0 target_moment_1 target_moment_2 target_moment_3 target_moment_4 target_moment_5 actual_q_0 actual_q_1 actual_q_2 actual_q_3 actual_q_4 actual_q_5 actual_qd_0 actual_qd_1 actual_qd_2 actual_qd_3 actual_qd_4 actual_qd_5 actual_current_0 actual_current_1 actual_current_2 actual_current_3 actual_current_4 actual_current_5 joint_control_output_0 joint_control_output_1 joint_control_output_2 joint_control_output_3 joint_control_output_4 joint_control_output_5 actual_TCP_pose_0 actual_TCP_pose_1 actual_TCP_pose_2 actual_TCP_pose_3 actual_TCP_pose_4 actual_TCP_pose_5 actual_TCP_speed_0 actual_TCP_speed_1 actual_TCP_speed_2 actual_TCP_speed_3 actual_TCP_speed_4 actual_TCP_speed_5 actual_TCP_force_0 actual_TCP_force_1 actual_TCP_force_2 actual_TCP_force_3 actual_TCP_force_4 actual_TCP_force_5 target_TCP_pose_0 target_TCP_pose_1 target_TCP_pose_2 target_TCP_pose_3 target_TCP_pose_4 target_TCP_pose_5 target_TCP_speed_0 target_TCP_speed_1 target_TCP_speed_2 target_TCP_speed_3 target_TCP_speed_4 target_TCP_speed_5 actual_digital_input_bits joint_temperatures_0 joint_temperatures_1 joint_temperatures_2 joint_temperatures_3 joint_temperatures_4 joint_temperatures_5 actual_execution_time robot_mode joint_mode_0 joint_mode_1 joint_mode_2 joint_mode_3 joint_mode_4 joint_mode_5 safety_status actual_tool_accelerometer_0 actual_tool_accelerometer_1 actual_tool_accelerometer_2 speed_scaling target_speed_fraction actual_momentum actual_main_voltage actual_robot_voltage actual_robot_current actual_joint_voltage_0 actual_joint_voltage_1 actual_joint_voltage_2 actual_joint_voltage_3 actual_joint_voltage_4 actual_joint_voltage_5 actual_digital_output_bits runtime_state joint_position_deviation_ratio
4029.5389999999998 6.776263578034403e-21 -1.5707963267948966 8.881784197001252e-16 -1.5707963267948966 4.440875157841681e-16 8.881784197001252e-16 0.0 0.0 0.0 0.0 0.0 0.0 0.0 0.0 0.0 0.0 0.0 0.0 2.6922923519978926e-21 3.3220151181012625e-06 -3.542047488735989e-05 -3.388713309959712e-07 1.0608197698047661e-07 0.0 2.9585068627938816e-20 3.6536223869353384e-05 -0.0003901179696282926 -2.8585753579742445e-06 9.010789655723791e-07 0.0 1.2144851098128129e-05 -1.5707534360957034 3.639851705372621e-06 -1.5707843941493884 1.4305123841040768e-07 8.58306884765625e-06 0.0 0.0 -0.0 0.0 0.0 0.0 -0.1901102215051651 -0.13885793089866638 -0.15719644725322723 -0.039112113416194916 0.012991849333047867 -0.054992035031318665 2.6922923519978926e-21 3.3220151181012625e-06 -3.542047488735989e-05 -3.388713309959712e-07 1.0608197698047661e-07 0.0 -0.0010763884969953942 -0.23365604688461722 1.0802957867938283 -0.005123460914961017 -2.2187278258508263 2.2193870835226552 0.0 0.0 0.0 0.0 0.0 0.0 0.3602475293873957 -0.04378330984569518 -0.2940725426466663 -0.0028499500406674355 -0.0022516311845494673 -0.007008068183707679 -0.0010369009249316316 -0.23365603829458223 1.0802958470402677 -0.00506264323746423 -2.2186881488822174 2.2193475361807398 0.0 0.0 0.0 0.0 0.0 0.0 0 27.25 27.25 27.0 31.5 33.75 34.25 0.416099 7 253 253 253 253 253 253 1 -0.1149216815829277 -9.251194953918457 0.1149216741323471 0.0 1.0 0.0 47.73076629638672 47.76301193237305 0.5617354512214661 47.61359405517578 47.6279296875 47.57059860229492 47.513267517089844 47.61359405517578 47.32693862915039 0 4 0.0003138790634693578
4029.6389999999997 6.776263578034403e-21 -1.5707963267948966 8.881784197001252e-16 -1.5707963267948966 4.440875157841681e-16 8.881784197001252e-16 0.0 0.0 0.0 0.0 0.0 0.0 0.0 0.0 0.0 0.0 0.0 0.0 8.91685029136965e-21 8.467119914712384e-05 -1.3277603102324065e-05 -5.859269549546298e-06 1.3752376162301516e-06 0.0 9.798550873374479e-20 0.0009312316853688884 -0.00014623833109260467 -4.942632186321258e-05 1.1681510379784697e-05 0.0 -6.977711812794496e-06 -1.5707640283292967 3.129640688115387e-05 -1.5707994900145472 -4.116688863575746e-06 -1.5083943502247621e-05 0.0 0.0 -0.0 0.0 0.0 0.0 -0.18218611180782318 -0.18278862535953522 -0.15744777023792267 -0.03887828066945076 -0.00394328311085701 -0.04284721612930298 8.91685029136965e-21 8.467119914712384e-05 -1.3277603102324065e-05 -5.859269549546298e-06 1.3752376162301516e-06 0.0 -0.0010836773524954425 -0.2336560470610756 1.0802957600646699 -0.005125320766566154 -2.218705441127977 2.219364326542985 0.0 0.0 0.0 0.0 0.0 0.0 0.6202294484092961 -0.06795024331625037 -0.32996825136925045 -0.005371202184039208 -0.0012858271855575136 -0.014885083346385665 -0.0010369009249316316 -0.23365603829458223 1.0802958470402677 -0.00506264323746423 -2.2186881488822174 2.2193475361807398 0.0 0.0 0.0 0.0 0.0 0.0 0 27.25 27.25 27.0 31.5 33.5 34.25 0.419528 7 253 253 253 253 253 253 1 -0.07661445438861847 -9.193734169006348 0.05746084079146385 0.0 1.0 0.0 47.707481384277344 47.76838302612305 0.5124996304512024 47.59926223754883 47.6279296875 47.55626678466797 47.498931884765625 47.584930419921875 47.32693862915039 0 4 0.0003138780448352918
4029.739 6.776263578034403e-21 -1.5707963267948966 8.881784197001252e-16 -1.5707963267948966 4.440875157841681e-16 8.881784197001252e-16 0.0 0.0 0.0 0.0 0.0 0.0 0.0 0.0 0.0 0.0 0.0 0.0 -1.7271133351775497e-21 2.932779534603469e-05 -1.6614230844425038e-05 4.391455149743706e-06 -1.5013079064374324e-06 0.0 -1.8978907238057912e-20 0.00032255330488797386 -0.0001829876550383667 3.704445694275836e-05 -1.2752373110346802e-05 0.0 8.561653885408305e-06 -1.570796327 1.5083943502247621e-05 -1.5707958501628418 1.9085406165686436e-05 8.58306884765625e-06 0.0 0.0 -0.0 0.0 0.0 0.0 -0.16933493316173553 -0.12964323163032532 -0.21554206311702728 -0.054758746176958084 -0.002267148345708847 -0.02178524062037468 -1.7271133351775497e-21 2.932779534603469e-05 -1.6614230844425038e-05 4.391455149743706e-06 -1.5013079064374324e-06 0.0 -0.0010404787147868357 -0.23365606680247825 1.0802958236430764 -0.005058864583306842 -2.2187140850856744 2.2193734074220237 0.0 0.0 0.0 0.0 0.0 0.0 0.5810108445019647 -0.018932129139690137 -0.020213357102944186 0.005011009665261495 0.0012296587731489572 -0.012413667984226735 -0.0010369009249316316 -0.23365603829458223 1.0802958470402677 -0.00506264323746423 -2.2186881488822174 2.2193475361807398 0.0 0.0 0.0 0.0 0.0 0.0 0 27.25 27.25 27.0 31.5 33.75 34.25 0.424073 7 253 253 253 253 253 253 1 -0.038307227194309235 -9.346963882446289 0.19153612852096558 0.0 1.0 0.0 47.700321197509766 47.75584411621094 0.5259276032447815 47.584930419921875 47.61359405517578 47.541934967041016 47.48460006713867 47.59926223754883 47.31260681152344 0 4 0.00016095900112607828
4029.839 6.776263578034403e-21 -1.5707963267948966 8.881784197001252e-16 -1.5707963267948966 4.440875157841681e-16 8.881784197001252e-16 0.0 0.0 0.0 0.0 0.0 0.0 0.0 0.0 0.0 0.0 0.0 0.0 -5.820586031096874e-21 -0.000163226795848459 -8.644604531582445e-05 -7.0883097578189336e-06 2.166797457903158e-06 0.0 -6.396126795301652e-20 -0.0017952028429492708 -0.0009521090097091164 -5.979398230811542e-05 1.8405158520350547e-05 0.0 3.499984450172633e-05 -1.5707652937383791 -7.1475169534096494e-06 -1.5707994900145472 1.9085406165686436e-05 1.2087821232853457e-05 0.0 0.0 -0.0 0.0 0.0 0.0 -0.15590380132198334 -0.2025870978832245 -0.18493007123470306 -0.03611532971262932 0.00024442002177238464 -0.020959913730621338 -5.820586031096874e-21 -0.000163226795848459 -8.644604531582445e-05 -7.0883097578189336e-06 2.166797457903158e-06 0.0 -0.0010514646421173046 -0.23365608293140178 1.0802958207777273 -0.005039134429006546 -2.2187316767053846 2.2193910205878424 0.0 0.0 0.0 0.0 0.0 0.0 0.3339619690798958 -0.001806321725569519 0.0007933479337163772 0.002433787592716241 6.58767385613652e-05 -0.010765375165374175 -0.0010369009249316316 -0.23365603829458223 1.0802958470402677 -0.00506264323746423 -2.2186881488822174 2.2193475361807398 0.0 0.0 0.0 0.0 0.0 0.0 0 27.25 27.25 27.0 31.5 33.75 34.25 0.41576 7 253 253 253 253 253 253 1 -0.09576806426048279 -9.308655738830566 0.07661445438861847 0.0 1.0 0.0 47.708377838134766 47.75315856933594 0.5706873536109924 47.59926223754883 47.61359405517578 47.55626678466797 47.48460006713867 47.584930419921875 47.298274993896484 0 4 0.00020384582967380993
4029.939 6.776263578034403e-21 -1.5707963267948966 8.881784197001252e-16 -1.5707963267948966 4.440875157841681e-16 8.881784197001252e-16 0.0 0.0 0.0 0.0 0.0 0.0 0.0 0.0 0.0 0.0 0.0 0.0 1.7259656624673107e-21 5.9795092965941876e-05 2.097210381180048e-05 4.716611329058651e-06 -1.366508286082535e-06 0.0 1.896629600275607e-20 0.0006576390716669441 0.00023098487816929807 3.9787342061397094e-05 -1.1607361946176363e-05 0.0 3.138780448352918e-05 -1.5707759846885274 1.1746083394825746e-05 -1.5707994900145472 -1.1269246236622621e-05 0.0 0.0 0.0 -0.0 0.0 0.0 0.0 -0.11934524774551392 -0.1210862547159195 -0.17216013371944427 -0.05414389446377754 -0.003928598016500473 -0.0364798903465271 1.7259656624673107e-21 5.9795092965941876e-05 2.097210381180048e-05 4.716611329058651e-06 -1.366508286082535e-06 0.0 -0.0010548239733611882 -0.23365607268693106 1.0802958051649454 -0.00507245962234143 -2.2187127540598692 2.219371940674525 0.0 0.0 0.0 0.0 0.0 0.0 0.2787661901131115 0.058803900899531795 -0.35521257825584773 -0.006114254818074877 0.0010504461820828154 -0.006087151099032874 -0.0010369009249316316 -0.23365603829458223 1.0802958470402677 -0.00506264323746423 -2.2186881488822174 2.2193475361807398 0.0 0.0 0.0 0.0 0.0 0.0 0 27.25 27.25 27.0 31.5 33.75 34.25 0.412741 7 253 253 253 253 253 253 1 -0.07661445438861847 -9.366117477416992 0.05746084079146385 0.0 1.0 0.0 47.72539520263672 47.76121520996094 0.48788174986839294 47.61359405517578 47.64226531982422 47.57059860229492 47.498931884765625 47.61359405517578 47.32693862915039 0 4 0.00027811525797005743
4030.0389999999998 6.776263578034403e-21 -1.5707963267948966 8.881784197001252e-16 -1.5707963267948966 4.440875157841681e-16 8.881784197001252e-16 0.0 0.0 0.0 0.0 0.0 0.0 0.0 0.0 0.0 0.0 0.0 0.0 5.9174986409105576e-21 0.00015430155326612294 5.6253506045322865e-05 8.613502359366976e-06 -2.16753733184305e-06 0.0 6.502622648950673e-20 0.0016970410994177252 0.0006195710829562323 7.265986974798549e-05 -1.8411443089580577e-05 0.0 2.384185791015625e-07 -1.5708066425719203 -3.5524365102901356e-06 -1.5707994900145472 -7.931386129200746e-06 0.0 0.0 0.0 -0.0 0.0 0.0 0.0 -0.14111442863941193 -0.1927908957004547 -0.18842588365077972 -0.04100502282381058 0.008350137621164322 -0.0336308553814888 5.9174986409105576e-21 0.00015430155326612294 5.6253506045322865e-05 8.613502359366976e-06 -2.16753733184305e-06 0.0 -0.0010261032046270976 -0.2336560336060249 1.0802958654860169 -0.005052245626452399 -2.218675760703719 2.2193352102453754 0.0 0.0 0.0 0.0 0.0 0.0 0.6800592022753167 0.04614136386485315 -0.3421039945675533 -0.0038918706164755663 -0.00020491966246243646 -0.016661694421892633 -0.0010369009249316316 -0.23365603829458223 1.0802958470402677 -0.00506264323746423 -2.2186881488822174 2.2193475361807398 0.0 0.0 0.0 0.0 0.0 0.0 0 27.25 27.25 27.0 31.5 33.75 34.25 0.415609 7 253 253 253 253 253 253 1 -0.09576806426048279 -9.28950309753418 0.07661445438861847 0.0 1.0 0.0 47.737037658691406 47.77375411987305 0.5460695028305054 47.61359405517578 47.6279296875 47.57059860229492 47.513267517089844 47.6279296875 47.34127426147461 0 4 0.0002605119880172424
4030.1389999999997 6.776263578034403e-21 -1.5707963267948966 8.881784197001252e-16 -1.5707963267948966 4.440875157841681e-16 8.881784197001252e-16 0.0 0.0 0.0 0.0 0.0 0.0 0.0 0.0 0.0 0.0 0.0 0.0 -3.740221943764608e-21 -0.0001740520674502477 -7.073870074236766e-05 -6.603379461012082e-06 2.1607768303510966e-06 0.0 -4.110056001126781e-20 -0.001914261534157096 -0.000779109733913038 -5.570331459789698e-05 1.8354017348008183e-05 0.0 1.5716590496595018e-05 -1.5707605165301466 1.5083943502247621e-05 -1.5707879680924925 -3.4634266988575746e-05 2.3996830350370146e-05 0.0 0.0 -0.0 0.0 0.0 0.0 -0.11479067802429199 -0.20244507491588593 -0.15491239726543427 -0.0417381189763546 -0.007097039371728897 -0.04961047321557999 -3.740221943764608e-21 -0.0001740520674502477 -7.073870074236766e-05 -6.603379461012082e-06 2.1607768303510966e-06 0.0 -0.0010777966562201123 -0.23365603887716624 1.0802957788584266 -0.00517601406319137 -2.218720226649531 2.2193794951145214 0.0 0.0 0.0 0.0 0.0 0.0 0.5472858267959807 0.03144401177335633 -0.3229639059459142 -0.006248442590977755 0.002936096340713949 -0.0157297450893726 -0.0010369009249316316 -0.23365603829458223 1.0802958470402677 -0.00506264323746423 -2.2186881488822174 2.2193475361807398 0.0 0.0 0.0 0.0 0.0 0.0 0 27.25 27.25 27.0 31.5 33.75 34.25 0.41114 7 253 253 253 253 253 253 1 -0.09576806426048279 -9.251194953918457 0.038307227194309235 0.0 1.0 0.0 47.71643829345703 47.75942611694336 0.5169755816459656 47.59926223754883 47.6279296875 47.55626678466797 47.498931884765625 47.59926223754883 47.31260681152344 0 4 0.000274460508080665
4030.239 6.776263578034403e-21 -1.5707963267948966 8.881784197001252e-16 -1.5707963267948966 4.440875157841681e-16 8.881784197001252e-16 0.0 0.0 0.0 0.0 0.0 0.0 0.0 0.0 0.0 0.0 0.0 0.0 -1.684214347088711e-21 -8.666668145451695e-05 -2.3120659534470178e-05 -1.0050767969005392e-06 4.518215916959889e-07 0.0 -1.85074989179006e-20 -0.0009531784742163572 -0.0002546488895601544 -8.478403359310837e-06 3.8378522341639046e-06 0.0 -3.163014547169496e-06 -1.5707994900145472 1.5083943502247621e-05 -1.570784406071045 7.152556918299524e-06 -1.0315571920216371e-05 0.0 0.0 -0.0 0.0 0.0 0.0 -0.16482983529567719 -0.14009666442871094 -0.24700014293193817 -0.05591637268662453 0.000215139240026474 -0.025017110630869865 -1.684214347088711e-21 -8.666668145451695e-05 -2.3120659534470178e-05 -1.0050767969005392e-06 4.518215916959889e-07 0.0 -0.001042644188718127 -0.23365604235211235 1.0802958253833561 -0.005073278687787615 -2.2186969336987006 2.2193562290468236 0.0 0.0 0.0 0.0 0.0 0.0 0.5317198425902039 0.012299723050547051 -0.5284733340653925 -0.0075943677847822594 -0.0003560694663060592 -0.01464441481714378 -0.0010369009249316316 -0.23365603829458223 1.0802958470402677 -0.00506264323746423 -2.2186881488822174 2.2193475361807398 0.0 0.0 0.0 0.0 0.0 0.0 0 27.25 27.25 27.0 31.5 33.75 34.25 0.405592 7 253 253 253 253 253 253 1 -0.05746084079146385 -9.232041358947754 0.1149216815829277 0.0 1.0 0.0 47.70389938354492 47.764801025390625 0.5169755816459656 47.57059860229492 47.61359405517578 47.55626678466797 47.47026824951172 47.59926223754883 47.31260681152344 0 4 0.00016889263861230575
4030.339 6.776263578034403e-21 -1.5707963267948966 8.881784197001252e-16 -1.5707963267948966 4.440875157841681e-16 8.881784197001252e-16 0.0 0.0 0.0 0.0 0.0 0.0 0.0 0.0 0.0 0.0 0.0 0.0 -1.834677712913379e-20 -0.0003379776608198881 -0.00014451565220952034 -1.5063256796565838e-05 4.815004103875253e-06 0.0 -2.0160910824006779e-19 -0.0037171496664884854 -0.0015916824487140029 -0.00012706726742456816 4.0899488105250536e-05 0.0 2.5267573278142663e-07 -1.5707994900145472 1.1746083394825746e-05 -1.5707602664263796 -7.931386129200746e-06 0.0 0.0 0.0 -0.0 0.0 0.0 0.0 -0.17759878933429718 -0.13228845596313477 -0.1692589968442917 -0.046741001307964325 0.002826336771249771 -0.036979831755161285 -1.834677712913379e-20 -0.0003379776608198881 -0.00014451565220952034 -1.5063256796565838e-05 4.815004103875253e-06 0.0 -0.001044109957478317 -0.23365602385667983 1.0802958259191986 -0.005120742054081729 -2.2187064921408925 2.2193659988118575 0.0 0.0 0.0 0.0 0.0 0.0 0.6561300403575849 -0.05822179582103935 -0.26206754637548463 -0.0014550549305352117 0.007719166796473777 -0.013076901281725749 -0.0010369009249316316 -0.23365603829458223 1.0802958470402677 -0.00506264323746423 -2.2186881488822174 2.2193475361807398 0.0 0.0 0.0 0.0 0.0 0.0 0 27.25 27.25 27.0 31.5 33.75 34.25 0.408929 7 253 253 253 253 253 253 1 -0.038307227194309235 -9.308656692504883 0.09576806426048279 0.0 1.0 0.0 47.687782287597656 47.73076629638672 0.5169755816459656 47.55626678466797 47.59926223754883 47.513267517089844 47.47026824951172 47.57059860229492 47.28394317626953 0 4 0.0005139020504429936
4030.439 6.776263578034403e-21 -1.5707963267948966 8.881784197001252e-16 -1.5707963267948966 4.440875157841681e-16 8.881784197001252e-16 0.0 0.0 0.0 0.0 0.0 0.0 0.0 0.0 0.0 0.0 0.0 0.0 2.3283927601727103e-22 1.3442324870993616e-06 -1.0536190529819578e-05 -2.279945647387649e-06 1.3759942874003173e-07 0.0 2.5586246734045222e-21 1.4784153277227986e-05 -0.0001160446661013326 -1.9232656871940567e-05 1.1687937117465902e-06 0.0 3.1349543860415e-05 -1.5707994900145472 8.408223287403871e-06 -1.5708028278746546 7.152556918299524e-06 -2.557436098271637e-05 0.0 0.0 -0.0 0.0 0.0 0.0 -0.07948379218578339 -0.20522062480449677 -0.20348183810710907 -0.04788997024297714 -0.005901556462049484 -0.027995942160487175 2.3283927601727103e-22 1.3442324870993616e-06 -1.0536190529819578e-05 -2.279945647387649e-06 1.3759942874003173e-07 0.0 -0.0010294548736686994 -0.23365608283357944 1.08029583915447 -0.004990204304153901 -2.2186941703135017 2.2193533472306926 0.0 0.0 0.0 0.0 0.0 0.0 0.6403200988858646 -0.009610623775280963 -0.2589332556174538 -0.0007270811674745022 -0.00025522906540024657 -0.013840513549320185 -0.0010369009249316316 -0.23365603829458223 1.0802958470402677 -0.00506264323746423 -2.2186881488822174 2.2193475361807398 0.0 0.0 0.0 0.0 0.0 0.0 0 27.25 27.25 27.0 31.5 33.75 34.25 0.414222 7 253 253 253 253 253 253 1 -0.07661445438861847 -9.289502143859863 0.09576806426048279 0.0 1.0 0.0 47.69584274291992 47.74330520629883 0.5415935516357422 47.584930419921875 47.59926223754883 47.5275993347168 47.48460006713867 47.57059860229492 47.28394317626953 0 4 0.00012159347534179688
4030.5389999999998 6.776263578034403e-21 -1.5707963267948966 8.881784197001252e-16 -1.5707963267948966 4.440875157841681e-16 8.881784197001252e-16 0.0 0.0 0.0 0.0 0.0 0.0 0.0 0.0 0.0 0.0 0.0 0.0 -1.6766363851500897e-22 8.782553049968556e-05 1.67314810823882e-05 6.194444722495973e-06 -1.974069618881913e-06 0.0 -1.8424226104413195e-21 0.000965923682898704 0.00018427904048829908 5.225371602861738e-05 -1.6768094308449846e-05 0.0 -1.889864076787262e-05 -1.570764000142237 1.1746083394825746e-05 -1.5707994900145472 1.550432170915883e-05 8.58306884765625e-06 0.0 0.0 -0.0 0.0 0.0 0.0 -0.17991800606250763 -0.14342179894447327 -0.21616004407405853 -0.04934293031692505 -0.013221058994531631 -0.03761476278305054 -1.6766363851500897e-22 8.782553049968556e-05 1.67314810823882e-05 6.194444722495973e-06 -1.974069618881913e-06 0.0 -0.0010749074640503157 -0.23365603449880182 1.0802957901488164 -0.00512138494433401 -2.2187112574705723 2.219370417470702 0.0 0.0 0.0 0.0 0.0 0.0 0.45612026601694583 -0.1136863677280219 -0.2534713751771534 0.0004151324016595984 0.0018542515163562378 -0.008319854497794274 -0.0010369009249316316 -0.23365603829458223 1.0802958470402677 -0.00506264323746423 -2.2186881488822174 2.2193475361807398 0.0 0.0 0.0 0.0 0.0 0.0 0 27.25 27.25 27.0 31.5 33.75 34.25 0.408882 7 253 253 253 253 253 253 1 -0.05746084079146385 -9.251194953918457 0.019153613597154617 0.0 1.0 0.0 47.723602294921875 47.777339935302734 0.5259276032447815 47.584930419921875 47.6279296875 47.57059860229492 47.498931884765625 47.59926223754883 47.31260681152344 0 4 0.00018898641428677365
4030.6389999999997 6.776263578034403e-21 -1.5707963267948966 8.881784197001252e-16 -1.5707963267948966 4.440875157841681e-16 8.881784197001252e-16 0.0 0.0 0.0 0.0 0.0 0.0 0.0 0.0 0.0 0.0 0.0 0.0 -2.1689885332006888e-21 4.3150583223905414e-05 -8.18299849925097e-06 7.92499633917032e-07 -3.3516232633701293e-07 0.0 -2.3834587740943953e-20 0.00047457921759856366 -9.012681714810665e-05 6.685192081285384e-06 -2.8469274870093187e-06 0.0 1.5723704564152285e-05 -1.5708099804320277 -3.5285947888041846e-06 -1.5708190403380335 7.140636171243386e-06 8.590068318881094e-06 0.0 0.0 -0.0 0.0 0.0 0.0 -0.1409912258386612 -0.18081402778625488 -0.2122998982667923 -0.05828433111310005 -0.006568659096956253 -0.02706173248589039 -2.1689885332006888e-21 4.3150583223905414e-05 -8.18299849925097e-06 7.92499633917032e-07 -3.3516232633701293e-07 0.0 -0.0010159848530980275 -0.2336560674324327 1.0802958728627787 -0.0050025508551212365 -2.2186839874198125 2.2193433989041043 0.0 0.0 0.0 0.0 0.0 0.0 0.9118326971606966 -0.12279589793684502 -0.1335092686212414 0.002522492160945499 -0.0018126545391790253 -0.025005579010998404 -0.0010369009249316316 -0.23365603829458223 1.0802958470402677 -0.00506264323746423 -2.2186881488822174 2.2193475361807398 0.0 0.0 0.0 0.0 0.0 0.0 0 27.25 27.25 27.0 31.5 33.75 34.25 0.42043 7 253 253 253 253 253 253 1 -0.038307227194309235 -9.232041358947754 0.05746084079146385 0.0 1.0 0.0 47.71554183959961 47.77375411987305 0.5460695028305054 47.61359405517578 47.6279296875 47.57059860229492 47.513267517089844 47.61359405517578 47.32693862915039 0 4 0.00013653431778948288
4030.739 6.776263578034403e-21 -1.5707963267948966 8.881784197001252e-16 -1.5707963267948966 4.440875157841681e-16 8.881784197001252e-16 0.0 0.0 0.0 0.0 0.0 0.0 0.0 0.0 0.0 0.0 0.0 0.0 -3.0247678653011004e-21 -0.00014047700096853077 -2.3718184820609167e-05 -4.706153958977666e-06 2.6048974177683704e-06 0.0 -3.323857558258875e-20 -0.0015449956745527552 -0.0002612299471987732 -3.969912269708717e-05 2.2126457185166726e-05 0.0 1.5723704564152285e-05 -1.5707994900145472 -7.0924756983004045e-06 -1.5707994900145472 5.392065941123292e-05 -3.163014547169496e-06 0.0 0.0 -0.0 0.0 0.0 0.0 -0.1510118693113327 -0.13760487735271454 -0.1692601889371872 -0.0475248284637928 8.158758282661438e-05 -0.03820931166410446 -3.0247678653011004e-21 -0.00014047700096853077 -2.3718184820609167e-05 -4.706153958977666e-06 2.6048974177683704e-06 0.0 -0.0010211518026838704 -0.23365608315804082 1.0802958613601557 -0.004967108988861261 -2.2187148082392683 2.2193742354186083 0.0 0.0 0.0 0.0 0.0 0.0 0.6123489459274448 0.05642421866983724 -0.25919573289530984 -0.0023399950014199957 -0.0009378329222814986 -0.010493082462850328 -0.0010369009249316316 -0.23365603829458223 1.0802958470402677 -0.00506264323746423 -2.2186881488822174 2.2193475361807398 0.0 0.0 0.0 0.0 0.0 0.0 0 27.25 27.25 27.0 31.5 33.75 34.25 0.406224 7 253 253 253 253 253 253 1 -0.1149216815829277 -9.27034854888916 0.15322890877723694 0.0 1.0 0.0 47.700321197509766 47.74151611328125 0.48788174986839294 47.584930419921875 47.6279296875 47.541934967041016 47.498931884765625 47.584930419921875 47.298274993896484 0 4 0.00031363844755105674
4030.839 6.776263578034403e-21 -1.5707963267948966 8.881784197001252e-16 -1.5707963267948966 4.440875157841681e-16 8.881784197001252e-16 0.0 0.0 0.0 0.0 0.0 0.0 0.0 0.0 0.0 0.0 0.0 0.0 -2.4284839366981316e-21 -0.0001253307709703222 -4.855141742154956e-05 -3.587440460250946e-07 1.8212433872122347e-07 0.0 -2.6686131558577293e-20 -0.001378414342654497 -0.0005347409951381125 -3.0262130329865018e-06 1.5469961810597141e-06 0.0 1.2159347534179688e-05 -1.5707605306455044 -1.5496851119678468e-05 -1.5708157024779261 7.128714969439898e-06 -3.163014547169496e-06 0.0 0.0 -0.0 0.0 0.0 0.0 -0.18643368780612946 -0.11983662843704224 -0.14971746504306793 -0.04870379716157913 0.009196329861879349 -0.024647755548357964 -2.4284839366981316e-21 -0.0001253307709703222 -4.855141742154956e-05 -3.587440460250946e-07 1.8212433872122347e-07 0.0 -0.0010566322657804225 -0.2336560545683007 1.080295831054069 -0.005038742084286723 -2.2186968166884977 2.2193560262479464 0.0 0.0 0.0 0.0 0.0 0.0 0.5374172040573058 -0.05654685548699998 -0.24057399564851153 -0.0009386882015941491 -0.0005754385530805633 -0.008973891261480139 -0.0010369009249316316 -0.23365603829458223 1.0802958470402677 -0.00506264323746423 -2.2186881488822174 2.2193475361807398 0.0 0.0 0.0 0.0 0.0 0.0 0 27.25 27.25 27.0 31.5 33.75 34.25 0.412839 7 253 253 253 253 253 253 1 -0.019153613597154617 -9.346963882446289 -0.019153613597154617 0.0 1.0 0.0 47.660911560058594 47.71554183959961 0.4789297878742218 47.55626678466797 47.584930419921875 47.513267517089844 47.455936431884766 47.55626678466797 47.26961135864258 0 4 0.00020398594642756507
4030.939 6.776263578034403e-21 -1.5707963267948966 8.881784197001252e-16 -1.5707963267948966 4.440875157841681e-16 8.881784197001252e-16 0.0 0.0 0.0 0.0 0.0 0.0 0.0 0.0 0.0 0.0 0.0 0.0 -6.9287624826735795e-22 -9.851929689830285e-07 -1.2862295989179984e-05 1.986571760426159e-06 -4.6123210495352396e-07 0.0 -7.613880151015026e-21 -1.0835360903407732e-05 -0.0001416641802819684 1.6757880324172604e-05 -3.917786473383975e-06 0.0 -1.889864076787262e-05 -1.5707535007607767 -7.042579852623021e-09 -1.5707994900145472 2.262592170154676e-05 1.2052058991685044e-05 0.0 0.0 -0.0 0.0 0.0 0.0 -0.09524047374725342 -0.20844599604606628 -0.19371767342090607 -0.045221149921417236 0.0008006878197193146 -0.030017850920557976 -6.9287624826735795e-22 -9.851929689830285e-07 -1.2862295989179984e-05 1.986571760426159e-06 -4.6123210495352396e-07 0.0 -0.0010780444252687445 -0.2336560315350225 1.080295795265283 -0.00511593687610933 -2.218715920337052 2.219375136688085 0.0 0.0 0.0 0.0 0.0 0.0 0.6497980948416823 0.08349754788237677 -0.033487157565157244 0.005545212826046318 -0.0017384974649358447 -0.013258364510189021 -0.0010369009249316316 -0.23365603829458223 1.0802958470402677 -0.00506264323746423 -2.2186881488822174 2.2193475361807398 0.0 0.0 0.0 0.0 0.0 0.0 0 27.25 27.25 27.0 31.5 33.75 34.25 0.414874 7 253 253 253 253 253 253 1 -0.07661445438861847 -9.289502143859863 0.15322890877723694 0.0 1.0 0.0 47.67524337768555 47.72002029418945 0.5415935516357422 47.55626678466797 47.584930419921875 47.513267517089844 47.455936431884766 47.57059860229492 47.28394317626953 0 4 0.0001571894608787261
4031.0389999999998 6.776263578034403e-21 -1.5707963267948966 8.881784197001252e-16 -1.5707963267948966 4.440875157841681e-16 8.881784197001252e-16 0.0 0.0 0.0 0.0 0.0 0.0 0.0 0.0 0.0 0.0 0.0 0.0 7.489748053833303e-21 -0.0001989826705539599 -8.227301441365853e-05 -1.3878011486667674e-05 3.85149405701668e-06 0.0 8.230335664828775e-20 -0.002188453391883824 -0.0009061476222140498 -0.00011706903561441081 3.271526726469349e-05 0.0 1.572603650856763e-05 -1.570768921618157 1.5083943502247621e-05 -1.5708028278746546 -4.593526021778871e-06 -3.163014547169496e-06 0.0 0.0 -0.0 0.0 0.0 0.0 -0.12974943220615387 -0.2162541300058365 -0.19229964911937714 -0.04146744683384895 -0.018708355724811554 -0.05100690573453903 7.489748053833303e-21 -0.0001989826705539599 -8.227301441365853e-05 -1.3878011486667674e-05 3.85149405701668e-06 0.0 -0.0010656116293738139 -0.23365606346327064 1.080295791927095 -0.005086758543659774 -2.2187102480110794 2.2193693344819643 0.0 0.0 0.0 0.0 0.0 0.0 0.5765442101559307 -0.022998070588114417 -0.18900270177246933 0.0011191204108289615 0.0008645724637607646 -0.01186399791321012 -0.0010369009249316316 -0.23365603829458223 1.0802958470402677 -0.00506264323746423 -2.2186881488822174 2.2193475361807398 0.0 0.0 0.0 0.0 0.0 0.0 0 27.25 27.25 27.0 31.5 33.75 34.25 0.416366 7 253 253 253 253 253 253 1 -0.05746084079146385 -9.174580574035645 0.1149216815829277 0.0 1.0 0.0 47.71464920043945 47.75763702392578 0.5415935516357422 47.61359405517578 47.6279296875 47.55626678466797 47.498931884765625 47.584930419921875 47.31260681152344 0 4 0.00031003986805444583
4031.1389999999997 6.776263578034403e-21 -1.5707963267948966 8.881784197001252e-16 -1.5707963267948966 4.440875157841681e-16 8.881784197001252e-16 0.0 0.0 0.0 0.0 0.0 0.0 0.0 0.0 0.0 0.0 0.0 0.0 -1.4220465807182572e-20 -0.0001687726762611419 -6.562033377122134e-05 -7.313619789783843e-06 2.1580749489658047e-06 0.0 -1.5626588853137886e-19 -0.001856197657144741 -0.0007227364767647955 -6.169460199307889e-05 1.83310678023726e-05 0.0 1.2159347534179688e-05 -1.5707794350440345 1.1746083394825746e-05 -1.5708309612669886 -1.1269246236622621e-05 -3.163014547169496e-06 0.0 0.0 -0.0 0.0 0.0 0.0 -0.14068861305713654 -0.17886294424533844 -0.1638474315404892 -0.04169284924864769 0.0060915760695934296 -0.04678914695978165 -1.4220465807182572e-20 -0.0001687726762611419 -6.562033377122134e-05 -7.313619789783843e-06 2.1580749489658047e-06 0.0 -0.0010530121723037018 -0.2336560671452595 1.0802958155295594 -0.0050514759172985944 -2.218684204013691 2.21934321740839 0.0 0.0 0.0 0.0 0.0 0.0 0.5774148420688417 -0.17284993821116992 -0.22086540386869782 -0.0009890818806229133 -0.0013555628171438025 -0.012819781683467528 -0.0010369009249316316 -0.23365603829458223 1.0802958470402677 -0.00506264323746423 -2.2186881488822174 2.2193475361807398 0.0 0.0 0.0 0.0 0.0 0.0 0 27.25 27.25 27.0 31.5 33.75 34.25 0.415798 7 253 253 253 253 253 253 1 -0.07661445438861847 -9.193734169006348 0.13407529890537262 0.0 1.0 0.0 47.72002029418945 47.754947662353516 0.532641589641571 47.61359405517578 47.6279296875 47.55626678466797 47.498931884765625 47.61359405517578 47.32693862915039 0 4 0.0002740517447819002
4031.239 6.776263578034403e-21 -1.5707963267948966 8.881784197001252e-16 -1.5707963267948966 4.440875157841681e-16 8.881784197001252e-16 0.0 0.0 0.0 0.0 0.0 0.0 0.0 0.0 0.0 0.0 0.0 0.0 -6.862944725016242e-23 5.197763312025927e-05 4.002503555966541e-05 3.733847961484571e-06 -6.799389211664675e-07 0.0 -7.541554430123565e-22 0.0005716609873722725 0.00044083216799371193 3.1497160914982795e-05 -5.7755206639194645e-06 0.0 1.571178472659085e-05 -1.570768921618157 -3.5285947888041846e-06 -1.5708028278746546 -1.1269246236622621e-05 -3.163014547169496e-06 0.0 0.0 -0.0 0.0 0.0 0.0 -0.1285277009010315 -0.10279111564159393 -0.21626634895801544 -0.03754160553216934 0.0042222775518894196 -0.05930665135383606 -6.862944725016242e-23 5.197763312025927e-05 4.002503555966541e-05 3.733847961484571e-06 -6.799389211664675e-07 0.0 -0.001057111593207829 -0.23365604867854856 1.0802958206918267 -0.005073464845677058 -2.218697548010685 2.219356777725711 0.0 0.0 0.0 0.0 0.0 0.0 0.24124252550245248 -0.08791262043439511 -0.35497064323034566 -0.006338008990527931 0.001590321453461609 -0.00805836950219698 -0.0010369009249316316 -0.23365603829458223 1.0802958470402677 -0.00506264323746423 -2.2186881488822174 2.2193475361807398 0.0 0.0 0.0 0.0 0.0 0.0 0 27.25 27.25 27.0 31.5 33.75 34.25 0.416885 7 253 253 253 253 253 253 1 -0.07661445438861847 -9.308656692504883 0.07661445438861847 0.0 1.0 0.0 47.73076629638672 47.77286148071289 0.5371175408363342 47.61359405517578 47.6279296875 47.584930419921875 47.513267517089844 47.6279296875 47.32693862915039 0 4 0.00024199485778808594
4031.339 6.776263578034403e-21 -1.5707963267948966 8.881784197001252e-16 -1.5707963267948966 4.440875157841681e-16 8.881784197001252e-16 0.0 0.0 0.0 0.0 0.0 0.0 0.0 0.0 0.0 0.0 0.0 0.0 -3.882847591531783e-21 -0.0001350279344478622 -5.82873763050884e-05 -5.797557150799548e-06 1.914657786983298e-06 0.0 -4.266784275593128e-20 -0.0014850657826531127 -0.0006419719494129582 -4.890574274650869e-05 1.6263440548028454e-05 0.0 -1.1746083394825746e-05 -1.5708099804320277 -3.5166738143743714e-06 -1.5707958501628418 1.191159026348032e-05 1.2052058991685044e-05 0.0 0.0 -0.0 0.0 0.0 0.0 -0.1602008193731308 -0.1736513078212738 -0.2086484283208847 -0.0450601652264595 0.0013956166803836823 -0.03632453829050064 -3.882847591531783e-21 -0.0001350279344478622 -5.82873763050884e-05 -5.797557150799548e-06 1.914657786983298e-06 0.0 -0.0010242473359103582 -0.23365603131239715 1.0802958683670094 -0.005057323888492878 -2.2186858431122136 2.2193453887877896 0.0 0.0 0.0 0.0 0.0 0.0 0.4557725042469939 -0.033320720865098075 -0.48636027967541595 -0.004762798086586264 0.0009904523097901718 -0.013314299670928441 -0.0010369009249316316 -0.23365603829458223 1.0802958470402677 -0.00506264323746423 -2.2186881488822174 2.2193475361807398 0.0 0.0 0.0 0.0 0.0 0.0 0 27.25 27.25 27.0 31.5 33.75 34.25 0.41715 7 253 253 253 253 253 253 1 -0.038307227194309235 -9.289502143859863 0.019153613597154617 0.0 1.0 0.0 47.693153381347656 47.7585334777832 0.514737606048584 47.584930419921875 47.59926223754883 47.541934967041016 47.48460006713867 47.584930419921875 47.31260681152344 0 4 0.00020384582967380993
4031.439 6.776263578034403e-21 -1.5707963267948966 8.881784197001252e-16 -1.5707963267948966 4.440875157841681e-16 8.881784197001252e-16 0.0 0.0 0.0 0.0 0.0 0.0 0.0 0.0 0.0 0.0 0.0 0.0 6.1897339587007025e-21 -0.00019522292132023722 -6.0488593589980155e-05 -8.325848284584936e-06 2.6857221655518515e-06 0.0 6.801776056626041e-20 -0.002147102880918955 -0.0006662159330550096 -7.023333455006214e-05 2.281299518188135e-05 0.0 8.571386388211977e-06 -1.5707994900145472 -3.5285947888041846e-06 -1.5708309612669886 -1.5083943502247621e-05 1.2059011169185396e-05 0.0 0.0 -0.0 0.0 0.0 0.0 -0.17764239013195038 -0.17942187190055847 -0.1765856295824051 -0.0413251593708992 0.008606363087892532 -0.06430274993181229 6.1897339587007025e-21 -0.00019522292132023722 -6.0488593589980155e-05 -8.325848284584936e-06 2.6857221655518515e-06 0.0 -0.0010283040441924078 -0.23365605261105354 1.0802958630919917 -0.005037333619773947 -2.218670316467078 2.219329629150087 0.0 0.0 0.0 0.0 0.0 0.0 0.3768326999241391 -0.08301407694108655 -0.3451043118487148 -0.004922472178861971 -0.005088591202140283 -0.00984617101394416 -0.0010369009249316316 -0.23365603829458223 1.0802958470402677 -0.00506264323746423 -2.2186881488822174 2.2193475361807398 0.0 0.0 0.0 0.0 0.0 0.0 0 27.25 27.25 27.0 31.5 33.75 34.25 0.415608 7 253 253 253 253 253 253 1 -0.05746084079146385 -9.251194953918457 0.09576806426048279 0.0 1.0 0.0 47.689571380615234 47.74151611328125 0.5192136168479919 47.584930419921875 47.59926223754883 47.541934967041016 47.47026824951172 47.584930419921875 47.298274993896484 0 4 0.00035805343941319734
4031.5389999999998 6.776263578034403e-21 -1.5707963267948966 8.881784197001252e-16 -1.5707963267948966 4.440875157841681e-16 8.881784197001252e-16 0.0 0.0 0.0 0.0 0.0 0.0 0.0 0.0 0.0 0.0 0.0 0.0 -1.1500545703504765e-20 -0.00018916344561148435 -8.58920393511653e-05 -6.601302629860584e-06 2.159658833988942e-06 0.0 -1.2637721742186451e-19 -0.0020804595025388146 -0.0009460072872945957 -5.568579801788068e-05 1.834452073764682e-05 0.0 2.384185791015625e-07 -1.5708099804320277 -1.05282506410731e-05 -1.5708028278746546 -1.5083943502247621e-05 -1.0315571920216371e-05 0.0 0.0 -0.0 0.0 0.0 0.0 -0.10696135461330414 -0.19465675950050354 -0.1851847618818283 -0.042662207037210464 -0.004832971841096878 -0.05833575129508972 -1.1500545703504765e-20 -0.00018916344561148435 -8.58920393511653e-05 -6.601302629860584e-06 2.159658833988942e-06 0.0 -0.0010199831181198903 -0.23365602705169697 1.0802958807781833 -0.005033538667571179 -2.218660221210666 2.219319668020456 0.0 0.0 0.0 0.0 0.0 0.0 0.4990341847507064 -0.03486110072430698 -0.3696747525790567 -0.0019141191491645817 0.0003512358854392368 -0.009744207455690523 -0.0010369009249316316 -0.23365603829458223 1.0802958470402677 -0.00506264323746423 -2.2186881488822174 2.2193475361807398 0.0 0.0 0.0 0.0 0.0 0.0 0 27.25 27.25 27.0 31.5 33.75 34.25 0.413765 7 253 253 253 253 253 253 1 -0.038307227194309235 -9.27034854888916 0.05746084079146385 0.0 1.0 0.0 47.739723205566406 47.78718948364258 0.5415935516357422 47.6279296875 47.65659713745117 47.584930419921875 47.5275993347168 47.6279296875 47.32693862915039 0 4 0.00027787446015281603
4031.6389999999997 6.776263578034403e-21 -1.5707963267948966 8.881784197001252e-16 -1.5707963267948966 4.440875157841681e-16 8.881784197001252e-16 0.0 0.0 0.0 0.0 0.0 0.0 0.0 0.0 0.0 0.0 0.0 0.0 2.0542006634408338e-21 -0.0001684948365436867 -5.2099916501902044e-05 -8.037130101001821e-06 2.597609636723064e-06 0.0 2.257320552749167e-20 -0.0018531418278410448 -0.0005738238330589723 -6.77978294372164e-05 2.2064552194530733e-05 0.0 -3.163014547169496e-06 -1.5707994900145472 8.408223287403871e-06 -1.5708028278746546 -2.0329152242481996e-05 -6.500874654591371e-06 0.0 0.0 -0.0 0.0 0.0 0.0 -0.20602963864803314 -0.15137208998203278 -0.22927714884281158 -0.051324158906936646 -0.0010269470512866974 -0.03630996495485306 2.0542006634408338e-21 -0.0001684948365436867 -5.2099916501902044e-05 -8.037130101001821e-06 2.597609636723064e-06 0.0 -0.0010402527052950862 -0.23365603110975353 1.0802958395617714 -0.005080051497550478 -2.2186725430510843 2.219331811020073 0.0 0.0 0.0 0.0 0.0 0.0 0.348013686484035 -0.08373293060974539 -0.047976252975251106 0.0033269998413623858 0.0009356440011568148 -0.010866270667126091 -0.0010369009249316316 -0.23365603829458223 1.0802958470402677 -0.00506264323746423 -2.2186881488822174 2.2193475361807398 0.0 0.0 0.0 0.0 0.0 0.0 0 27.25 27.25 27.0 31.5 33.75 34.25 0.41748 7 253 253 253 253 253 253 1 -0.019153613597154617 -9.308655738830566 0.07661445438861847 0.0 1.0 0.0 47.707481384277344 47.76569366455078 0.5594974160194397 47.61359405517578 47.6279296875 47.55626678466797 47.498931884765625 47.59926223754883 47.31260681152344 0 4 0.00030931747460272163
4031.739 6.776263578034403e-21 -1.5707963267948966 8.881784197001252e-16 -1.5707963267948966 4.440875157841681e-16 8.881784197001252e-16 0.0 0.0 0.0 0.0 0.0 0.0 0.0 0.0 0.0 0.0 0.0 0.0 -4.114528037190172e-21 -0.000207598292035982 -7.287262269528583e-05 -9.894494723994285e-06 2.6067282306030393e-06 0.0 -4.5213734287413974e-20 -0.0022832099802880547 -0.0008026125262491088 -8.346577709477486e-05 2.2142006409677316e-05 0.0 2.384185791015625e-07 -1.5708099804320277 1.1746083394825746e-05 -1.5708028278746546 -1.889864076787262e-05 -3.163014547169496e-06 0.0 0.0 -0.0 0.0 0.0 0.0 -0.14996565878391266 -0.1946142613887787 -0.1519099920988083 -0.04399659484624863 0.006952229887247086 -0.06498739868402481 -4.114528037190172e-21 -0.000207598292035982 -7.287262269528583e-05 -9.894494723994285e-06 2.6067282306030393e-06 0.0 -0.0010313336126231468 -0.23365603767204862 1.0802958470011068 -0.005070474316900419 -2.218673035170714 2.219332349199177 0.0 0.0 0.0 0.0 0.0 0.0 0.4256707831828254 -0.04893430307996932 -0.07664226063587065 0.0011066695057877496 0.0005830160786913965 -0.011492075521611838 -0.0010369009249316316 -0.23365603829458223 1.0802958470402677 -0.00506264323746423 -2.2186881488822174 2.2193475361807398 0.0 0.0 0.0 0.0 0.0 0.0 0 27.25 27.5 27.0 31.5 33.75 34.25 0.414296 7 253 253 253 253 253 253 1 -0.038307227194309235 -9.232041358947754 0.17238251864910126 0.0 1.0 0.0 47.70927429199219 47.76659393310547 0.5371175408363342 47.584930419921875 47.6279296875 47.55626678466797 47.498931884765625 47.59926223754883 47.32693862915039 0 4 0.0003579834447009489
4031.839 6.776263578034403e-21 -1.5707963267948966 8.881784197001252e-16 -1.5707963267948966 4.440875157841681e-16 8.881784197001252e-16 0.0 0.0 0.0 0.0 0.0 0.0 0.0 0.0 0.0 0.0 0.0 0.0 -6.154375218688328e-21 -0.00014932620979379863 -4.6201577788451687e-05 -8.052481462073047e-06 2.364193505854928e-06 0.0 -6.762921640439805e-20 -0.0016423212446940293 -0.0005088600643140841 -6.792733107609546e-05 2.0081876660462746e-05 0.0 3.1315921660279855e-05 -1.5707794722860235 0.0 -1.5707879966824585 3.583368879844784e-06 5.125999450683594e-06 0.0 0.0 -0.0 0.0 0.0 0.0 -0.13635431230068207 -0.15322862565517426 -0.1873527616262436 -0.042939044535160065 -0.007845718413591385 -0.037634171545505524 -6.154375218688328e-21 -0.00014932620979379863 -4.6201577788451687e-05 -8.052481462073047e-06 2.364193505854928e-06 0.0 -0.0010455238434184647 -0.23365606890448687 1.0802958250394221 -0.005057621910351951 -2.2187207727211273 2.2193801564035267 0.0 0.0 0.0 0.0 0.0 0.0 0.33788777564187583 0.03274679253783451 -0.27903940955321177 -0.004870141987607483 0.0015884528326027291 -0.00822349291961928 -0.0010369009249316316 -0.23365603829458223 1.0802958470402677 -0.00506264323746423 -2.2186881488822174 2.2193475361807398 0.0 0.0 0.0 0.0 0.0 0.0 0 27.25 27.5 27.0 31.5 33.75 34.25 0.414958 7 253 253 253 253 253 253 1 -0.05746084079146385 -9.346963882446289 0.0 0.0 1.0 0.0 47.739723205566406 47.777339935302734 0.5662114024162292 47.61359405517578 47.6279296875 47.57059860229492 47.513267517089844 47.61359405517578 47.34127426147461 0 4 0.00046784502046648413
4031.939 6.776263578034403e-21 -1.5707963267948966 8.881784197001252e-16 -1.5707963267948966 4.440875157841681e-16 8.881784197001252e-16 0.0 0.0 0.0 0.0 0.0 0.0 0.0 0.0 0.0 0.0 0.0 0.0 3.2484244974590112e-21 -0.00011602061567828059 -3.93071495636832e-05 -6.748495707142865e-06 1.8984383132192306e-06 0.0 3.569629548698439e-20 -0.0012760192516901797 -0.0004329254184500254 -5.692745636601649e-05 1.6125669131963175e-05 0.0 1.5692796296207234e-05 -1.5707994900145472 1.1746083394825746e-05 -1.5708066425719203 3.8420912460424006e-05 8.610724762547761e-06 0.0 0.0 -0.0 0.0 0.0 0.0 -0.15097250044345856 -0.10932980477809906 -0.19529201090335846 -0.04120674729347229 0.004236895591020584 -0.07193537801504135 3.2484244974590112e-21 -0.00011602061567828059 -3.93071495636832e-05 -6.748495707142865e-06 1.8984383132192306e-06 0.0 -0.0010312663232922028 -0.23365608854088804 1.0802958343283489 -0.005010381363664987 -2.2187187621529936 2.2193780694313734 0.0 0.0 0.0 0.0 0.0 0.0 0.3289087319095872 -0.1680553513434495 -0.17399334538844724 0.001044736524736942 0.00012498415582446682 -0.008680535352869374 -0.0010369009249316316 -0.23365603829458223 1.0802958470402677 -0.00506264323746423 -2.2186881488822174 2.2193475361807398 0.0 0.0 0.0 0.0 0.0 0.0 0 27.25 27.5 27.0 31.5 33.75 34.0 0.417517 7 253 253 253 253 253 253 1 -0.1149216815829277 -9.327810287475586 0.19153612852096558 0.0 1.0 0.0 47.70927429199219 47.782711029052734 0.5729253888130188 47.6279296875 47.6279296875 47.584930419921875 47.513267517089844 47.61359405517578 47.32693862915039 0 4 0.00020384582967380993
4032.0389999999998 6.776263578034403e-21 -1.5707963267948966 8.881784197001252e-16 -1.5707963267948966 4.440875157841681e-16 8.881784197001252e-16 0.0 0.0 0.0 0.0 0.0 0.0 0.0 0.0 0.0 0.0 0.0 0.0 -4.908059604815267e-21 -0.00012122806219849735 -4.450717460713349e-05 -3.4559998312033713e-06 1.4418961882256554e-06 0.0 -5.39336986293311e-20 -0.001333291854654685 -0.0004901980214145305 -2.9153353361656396e-05 1.2247719348282375e-05 0.0 3.1315921660279855e-05 -1.5707759422114869 -7.061396900098771e-06 -1.5707879823497315 -1.1269246236622621e-05 -3.163014547169496e-06 0.0 0.0 -0.0 0.0 0.0 0.0 -0.10201898217201233 -0.17357423901557922 -0.15154387056827545 -0.046878039836883545 -0.0070375315845012665 -0.0323217511177063 -4.908059604815267e-21 -0.00012122806219849735 -4.450717460713349e-05 -3.4559998312033713e-06 1.4418961882256554e-06 0.0 -0.0010467639340933955 -0.23365605610554452 1.0802958317583173 -0.005060938422441105 -2.2187074387917898 2.219366814867961 0.0 0.0 0.0 0.0 0.0 0.0 0.34388891205796135 -0.03913937852529592 -0.28728277715390943 -0.0014186636027615457 0.001477029389626588 -0.007056127523178254 -0.0010369009249316316 -0.23365603829458223 1.0802958470402677 -0.00506264323746423 -2.2186881488822174 2.2193475361807398 0.0 0.0 0.0 0.0 0.0 0.0 0 27.25 27.25 27.0 31.5 33.75 34.25 0.414487 7 253 253 253 253 253 253 1 -0.019153613597154617 -9.327810287475586 0.05746084079146385 0.0 1.0 0.0 47.71285629272461 47.7585334777832 0.5236895680427551 47.61359405517578 47.64226531982422 47.55626678466797 47.513267517089844 47.61359405517578 47.31260681152344 0 4 0.00020384582967380993
4032.1389999999997 6.776263578034403e-21 -1.5707963267948966 8.881784197001252e-16 -1.5707963267948966 4.440875157841681e-16 8.881784197001252e-16 0.0 0.0 0.0 0.0 0.0 0.0 0.0 0.0 0.0 0.0 0.0 0.0 -4.965602375659905e-21 -0.00014176502008922398 -6.501485040644184e-05 -7.277687473106198e-06 1.914657786983298e-06 0.0 -5.456601994551687e-20 -0.0015591615901862609 -0.0007160677569461064 -6.139149893662732e-05 1.6263440546594576e-05 0.0 1.2152210729254875e-05 -1.5707994900145472 -3.5096550163871143e-06 -1.5707690042311988 -2.748170961552887e-05 -3.163014547169496e-06 0.0 0.0 -0.0 0.0 0.0 0.0 -0.1534162014722824 -0.20376114547252655 -0.1951989382505417 -0.046190522611141205 0.002511110156774521 -0.04599311202764511 -4.965602375659905e-21 -0.00014176502008922398 -6.501485040644184e-05 -7.277687473106198e-06 1.914657786983298e-06 0.0 -0.0010348888558078502 -0.23365602005055364 1.0802958512173562 -0.005099012637943287 -2.218689082488955 2.2193486456601605 0.0 0.0 0.0 0.0 0.0 0.0 0.39827951748919355 -0.037315790333461316 -0.21482550128320776 -0.006494983642532111 -0.0020275383023513316 -0.010870445991975938 -0.0010369009249316316 -0.23365603829458223 1.0802958470402677 -0.00506264323746423 -2.2186881488822174 2.2193475361807398 0.0 0.0 0.0 0.0 0.0 0.0 0 27.25 27.25 27.0 31.5 33.75 34.0 0.416849 7 253 253 253 253 253 253 1 -0.1149216815829277 -9.27034854888916 0.07661445438861847 0.0 1.0 0.0 47.737037658691406 47.77375411987305 0.5594974160194397 47.6279296875 47.64226531982422 47.584930419921875 47.5275993347168 47.61359405517578 47.34127426147461 0 4 0.00020384582967380993
4032.239 6.776263578034403e-21 -1.5707963267948966 8.881784197001252e-16 -1.5707963267948966 4.440875157841681e-16 8.881784197001252e-16 0.0 0.0 0.0 0.0 0.0 0.0 0.0 0.0 0.0 0.0 0.0 0.0 -1.2104108054094312e-21 -0.0002950629568658769 -0.00013400988245848566 -1.2891469850728754e-05 4.466257905733073e-06 0.0 -1.3300965295140734e-20 -0.0032451647235314986 -0.0014759729217072664 -0.00010874699296878603 3.7937182926962694e-05 0.0 -3.163014547169496e-06 -1.5708066425719203 4.593526021778871e-06 -1.5707844537549427 -3.129640688115387e-05 -3.163014547169496e-06 0.0 0.0 -0.0 0.0 0.0 0.0 -0.08876676857471466 -0.1841040849685669 -0.24316267669200897 -0.04648580402135849 -0.008173290640115738 -0.03898803889751434 -1.2104108054094312e-21 -0.0002950629568658769 -0.00013400988245848566 -1.2891469850728754e-05 4.466257905733073e-06 0.0 -0.001034733988244691 -0.2336560140566904 1.080295850515228 -0.005104122557486571 -2.21867230686518 2.2193317566318274 0.0 0.0 0.0 0.0 0.0 0.0 0.06876033358958562 -0.09882205375312265 -0.36315715195458803 -0.004782707845799222 0.003175149436973329 -0.006635693008436031 -0.0010369009249316316 -0.23365603829458223 1.0802958470402677 -0.00506264323746423 -2.2186881488822174 2.2193475361807398 0.0 0.0 0.0 0.0 0.0 0.0 0 27.25 27.25 27.0 31.5 33.75 34.25 0.419055 7 253 253 253 253 253 253 1 -0.05746084079146385 -9.327810287475586 0.2106897532939911 0.0 1.0 0.0 47.723602294921875 47.77196502685547 0.5214515924453735 47.61359405517578 47.64226531982422 47.55626678466797 47.513267517089844 47.61359405517578 47.32693862915039 0 4 0.0004277606785763055
4032.339 6.776263578034403e-21 -1.5707963267948966 8.881784197001252e-16 -1.5707963267948966 4.440875157841681e-16 8.881784197001252e-16 0.0 0.0 0.0 0.0 0.0 0.0 0.0 0.0 0.0 0.0 0.0 0.0 -2.2618793407929382e-21 -0.00012522128236014396 -2.2220987375476398e-05 -2.9031807571300305e-06 5.796237587674113e-07 0.0 -2.485534438143072e-20 -0.0013772101725151053 -0.0002447399517671516 -2.44900064005494e-05 4.92342603867111e-06 0.0 -6.500874654591371e-06 -1.5708257160582484 1.889864076787262e-05 -1.5707958501628418 -4.593526021778871e-06 1.5497207641601562e-05 0.0 0.0 -0.0 0.0 0.0 0.0 -0.14217261970043182 -0.17099516093730927 -0.1609446257352829 -0.04114219546318054 0.002659779042005539 -0.033804066479206085 -2.2618793407929382e-21 -0.00012522128236014396 -2.2220987375476398e-05 -2.9031807571300305e-06 5.796237587674113e-07 0.0 -0.0010212649940408902 -0.23365604039969617 1.0802958532183256 -0.005081069470808157 -2.2186852541846402 2.2193447275018787 0.0 0.0 0.0 0.0 0.0 0.0 0.5221633852028239 -0.06146170569636544 -0.13646255774193305 0.0012173546113120784 0.003349568977879423 -0.011680264801146725 -0.0010369009249316316 -0.23365603829458223 1.0802958470402677 -0.00506264323746423 -2.2186881488822174 2.2193475361807398 0.0 0.0 0.0 0.0 0.0 0.0 0 27.25 27.25 27.0 31.5 33.75 34.25 0.415729 7 253 253 253 253 253 253 1 -0.019153613597154617 -9.27034854888916 0.1149216815829277 0.0 1.0 0.0 47.73255920410156 47.790771484375 0.5057856440544128 47.61359405517578 47.65659713745117 47.584930419921875 47.5275993347168 47.6279296875 47.34127426147461 0 4 0.00027381214749766514
4032.439 6.776263578034403e-21 -1.5707963267948966 8.881784197001252e-16 -1.5707963267948966 4.440875157841681e-16 8.881784197001252e-16 0.0 0.0 0.0 0.0 0.0 0.0 0.0 0.0 0.0 0.0 0.0 0.0 -1.5837274526896819e-21 -0.0001373235136270523 -6.05796740273945e-05 -8.790497304289602e-06 3.1443460102309473e-06 0.0 -1.7403267831079055e-20 -0.0015103129630540777 -0.0006672191298139234 -7.415292314747401e-05 2.670862700127716e-05 0.0 1.2159347534179688e-05 -1.5707759561285748 1.1746083394825746e-05 -1.5708028278746546 -1.5083943502247621e-05 1.548340696899686e-05 0.0 0.0 -0.0 0.0 0.0 0.0 -0.15135957300662994 -0.15398268401622772 -0.14961574971675873 -0.04063228517770767 -0.0033084452152252197 -0.041992515325546265 -1.5837274526896819e-21 -0.0001373235136270523 -6.05796740273945e-05 -8.790497304289602e-06 3.1443460102309473e-06 0.0 -0.0010593896154256915 -0.2336560516982572 1.0802958058342185 -0.005111510330888755 -2.2187072418656997 2.2193664883479096 0.0 0.0 0.0 0.0 0.0 0.0 0.3458007247517484 -0.01640679002695707 -0.4316093466917117 -0.0032805881323007048 0.0024234581499400884 -0.009345215730873265 -0.0010369009249316316 -0.23365603829458223 1.0802958470402677 -0.00506264323746423 -2.2186881488822174 2.2193475361807398 0.0 0.0 0.0 0.0 0.0 0.0 0 27.25 27.25 27.0 31.5 33.75 34.0 0.418607 7 253 253 253 253 253 253 1 -0.038307227194309235 -9.327810287475586 0.19153612852096558 0.0 1.0 0.0 47.75405502319336 47.80331039428711 0.5281655788421631 47.64226531982422 47.670928955078125 47.59926223754883 47.5275993347168 47.64226531982422 47.35560607910156 0 4 0.0002281629895151127
4032.5389999999998 6.776263578034403e-21 -1.5707963267948966 8.881784197001252e-16 -1.5707963267948966 4.440875157841681e-16 8.881784197001252e-16 0.0 0.0 0.0 0.0 0.0 0.0 0.0 0.0 0.0 0.0 0.0 0.0 -4.964523567351248e-21 -0.000174164873897098 -7.114725303836167e-05 -7.309225111384876e-06 2.376190423092339e-06 0.0 -5.455417203727047e-20 -0.0019155021218845278 -0.0007836094593733496 -6.165753455289831e-05 2.0183778971105423e-05 0.0 2.454611660596129e-07 -1.5707759422114869 1.5083943502247621e-05 -1.5707994900145472 1.0752677553682588e-05 1.2009443707938772e-05 0.0 0.0 -0.0 0.0 0.0 0.0 -0.136485293507576 -0.22940708696842194 -0.17346329987049103 -0.04109368473291397 -0.003873530775308609 -0.041849538683891296 -4.964523567351248e-21 -0.000174164873897098 -7.114725303836167e-05 -7.309225111384876e-06 2.376190423092339e-06 0.0 -0.0010615929335895306 -0.2336560544932426 1.0802957997128089 -0.005099691568354005 -2.218715853370816 2.2193750704114 0.0 0.0 0.0 0.0 0.0 0.0 0.6204317241568394 -0.040860200942684596 0.08509103327359688 0.0055230614264588735 0.0018978686448539212 -0.016703251649772138 -0.0010369009249316316 -0.23365603829458223 1.0802958470402677 -0.00506264323746423 -2.2186881488822174 2.2193475361807398 0.0 0.0 0.0 0.0 0.0 0.0 0 27.25 27.25 27.0 31.5 33.75 34.0 0.416654 7 253 253 253 253 253 253 1 -0.15322890877723694 -9.251194953918457 0.07661445438861847 0.0 1.0 0.0 47.702110290527344 47.75942611694336 0.5214515924453735 47.61359405517578 47.6279296875 47.57059860229492 47.498931884765625 47.59926223754883 47.31260681152344 0 4 0.0002736725036811549
4032.6389999999997 6.776263578034403e-21 -1.5707963267948966 8.881784197001252e-16 -1.5707963267948966 4.440875157841681e-16 8.881784197001252e-16 0.0 0.0 0.0 0.0 0.0 0.0 0.0 0.0 0.0 0.0 0.0 0.0 -1.7472237599234617e-21 -0.00019827182404696941 -8.199575677281246e-05 -6.464456419053022e-06 2.608953536764602e-06 0.0 -1.9199897709682793e-20 -0.00218063551239911 -0.0009030939022836161 -5.453142300423373e-05 2.21609101250493e-05 0.0 1.5687943232478574e-05 -1.570822378198141 8.408223287403871e-06 -1.5708066425719203 1.0776519957289565e-05 -3.163014547169496e-06 0.0 0.0 -0.0 0.0 0.0 0.0 -0.12738731503486633 -0.15659382939338684 -0.15673978626728058 -0.034595467150211334 -0.0069927796721458435 -0.02777736820280552 -1.7472237599234617e-21 -0.00019827182404696941 -8.199575677281246e-05 -6.464456419053022e-06 2.608953536764602e-06 0.0 -0.0010113710595325343 -0.23365607081980444 1.0802958670032867 -0.0049987976733990745 -2.218685886420643 2.2193452719526836 0.0 0.0 0.0 0.0 0.0 0.0 0.1561241862261853 0.0023411697816479037 -0.3933078047874434 -0.008463587352521264 0.002031464810780294 -0.003819295870409811 -0.0010369009249316316 -0.23365603829458223 1.0802958470402677 -0.00506264323746423 -2.2186881488822174 2.2193475361807398 0.0 0.0 0.0 0.0 0.0 0.0 0 27.25 27.25 27.0 31.5 33.75 34.0 0.41327 7 253 253 253 253 253 253 1 -0.05746084079146385 -9.193734169006348 0.038307227194309235 0.0 1.0 0.0 47.73255920410156 47.77107238769531 0.5169755816459656 47.6279296875 47.64226531982422 47.584930419921875 47.513267517089844 47.61359405517578 47.32693862915039 0 4 0.0003088879748247564
4032.739 6.776263578034403e-21 -1.5707963267948966 8.881784197001252e-16 -1.5707963267948966 4.440875157841681e-16 8.881784197001252e-16 0.0 0.0 0.0 0.0 0.0 0.0 0.0 0.0 0.0 0.0 0.0 0.0 4.745179846021459e-22 -2.118232259817887e-06 -1.3993721040606033e-05 5.093277763990045e-07 1.3759942874003173e-07 0.0 5.214384734886667e-21 -2.3296767164947998e-05 -0.0001541255865435086 4.296474062632398e-06 1.1687937120663203e-06 0.0 1.2159347534179688e-05 -1.5707994900145472 1.1746083394825746e-05 -1.5708028278746546 -1.889864076787262e-05 8.589920980739407e-06 0.0 0.0 -0.0 0.0 0.0 0.0 -0.17637719213962555 -0.1769101619720459 -0.18360720574855804 -0.06181824207305908 -0.009093079715967178 -0.03296155482530594 4.745179846021459e-22 -2.118232259817887e-06 -1.3993721040606033e-05 5.093277763990045e-07 1.3759942874003173e-07 0.0 -0.0010381742748151433 -0.23365604980230548 1.0802958344360367 -0.005081957895247098 -2.21869010261763 2.2193494306851065 0.0 0.0 0.0 0.0 0.0 0.0 0.32020064298257706 0.0668589912699714 -0.28539975591463745 -0.0046448828495665485 0.008041174566651826 -0.009713219907893705 -0.0010369009249316316 -0.23365603829458223 1.0802958470402677 -0.00506264323746423 -2.2186881488822174 2.2193475361807398 0.0 0.0 0.0 0.0 0.0 0.0 0 27.25 27.25 27.0 31.5 33.75 34.25 0.424963 7 253 253 253 253 253 253 1 0.0 -9.327810287475586 0.2106897532939911 0.0 1.0 0.0 47.72539520263672 47.76659393310547 0.5438315272331238 47.61359405517578 47.64226531982422 47.57059860229492 47.498931884765625 47.61359405517578 47.32693862915039 0 4 0.0003129196193185635
4032.839 6.776263578034403e-21 -1.5707963267948966 8.881784197001252e-16 -1.5707963267948966 4.440875157841681e-16 8.881784197001252e-16 0.0 0.0 0.0 0.0 0.0 0.0 0.0 0.0 0.0 0.0 0.0 0.0 4.016083446876775e-21 -0.0002022649860009551 -8.066317968768999e-05 -8.928253919293638e-06 2.9431769235088723e-06 0.0 4.4131945220495137e-20 -0.0022245532043468474 -0.0008884170810699893 -7.531497678500702e-05 2.499986214741237e-05 0.0 -1.5083943502247621e-05 -1.5707450084740522 8.408223287403871e-06 -1.5707844656756897 3.4904718631878495e-05 -3.163014547169496e-06 0.0 0.0 -0.0 0.0 0.0 0.0 -0.15674202144145966 -0.12969771027565002 -0.18095539510250092 -0.05476486310362816 -0.006229288876056671 -0.0458374097943306 4.016083446876775e-21 -0.0002022649860009551 -8.066317968768999e-05 -8.928253919293638e-06 2.9431769235088723e-06 0.0 -0.0010893674389328592 -0.23365604017572877 1.0802957686450974 -0.005116691626986664 -2.218732382393571 2.219391494018304 0.0 0.0 0.0 0.0 0.0 0.0 0.5347263989544282 0.15549625802957956 -0.21739198552440822 -0.003470899941216732 0.0017416704574996383 -0.01308184830049973 -0.0010369009249316316 -0.23365603829458223 1.0802958470402677 -0.00506264323746423 -2.2186881488822174 2.2193475361807398 0.0 0.0 0.0 0.0 0.0 0.0 0 27.25 27.25 27.0 31.5 33.75 34.25 0.41929 7 253 253 253 253 253 253 1 -0.1149216815829277 -9.232041358947754 0.05746084079146385 0.0 1.0 0.0 47.71733093261719 47.783607482910156 0.5214515924453735 47.6279296875 47.64226531982422 47.57059860229492 47.513267517089844 47.61359405517578 47.34127426147461 0 4 0.0003230551374144852
4032.939 6.776263578034403e-21 -1.5707963267948966 8.881784197001252e-16 -1.5707963267948966 4.440875157841681e-16 8.881784197001252e-16 0.0 0.0 0.0 0.0 0.0 0.0 0.0 0.0 0.0 0.0 0.0 0.0 1.6861642597851236e-21 2.470616345817689e-05 1.2792439520126209e-05 2.13829162021284e-06 -6.490232067335455e-07 0.0 1.8528927295716307e-20 0.00027172360299971166 0.00014089478362115106 1.8037724693094407e-05 -5.512917035263048e-06 0.0 -3.163014547169496e-06 -1.5707759422114869 1.1746083394825746e-05 -1.570834299127096 -7.931386129200746e-06 8.59680130815832e-06 0.0 0.0 -0.0 0.0 0.0 0.0 -0.14899946749210358 -0.16053342819213867 -0.16560833156108856 -0.05056757479906082 -0.0005534738302230835 -0.03769306838512421 1.6861642597851236e-21 2.470616345817689e-05 1.2792439520126209e-05 2.13829162021284e-06 -6.490232067335455e-07 0.0 -0.0010591324593818353 -0.23365605440402418 1.0802958118681418 -0.005077990276816493 -2.2186841304816087 2.2193431668277626 0.0 0.0 0.0 0.0 0.0 0.0 0.36577350287410615 -0.043130694136587565 -0.12547153391494625 0.00038130256174441935 -0.00023940686128957566 -0.009656184123260213 -0.0010369009249316316 -0.23365603829458223 1.0802958470402677 -0.00506264323746423 -2.2186881488822174 2.2193475361807398 0.0 0.0 0.0 0.0 0.0 0.0 0 27.25 27.25 27.0 31.5 33.75 34.25 0.42135 7 253 253 253 253 253 253 1 0.019153613597154617 -9.366117477416992 0.1149216815829277 0.0 1.0 0.0 47.72539520263672 47.77375411987305 0.5236895680427551 47.61359405517578 47.64226531982422 47.57059860229492 47.5275993347168 47.6279296875 47.34127426147461 0 4 3.163014525853214e-05
4033.0389999999998 6.776263578034403e-21 -1.5707963267948966 8.881784197001252e-16 -1.5707963267948966 4.440875157841681e-16 8.881784197001252e-16 0.0 0.0 0.0 0.0 0.0 0.0 0.0 0.0 0.0 0.0 0.0 0.0 7.180385735912739e-21 -0.00020534216309897602 -8.90303635969758e-05 -1.5634248484275304e-05 4.61023728348664e-06 0.0 7.890384410814133e-20 -0.002258396461775259 -0.0009805724296693223 -0.00013188391054017967 3.9160165014862754e-05 0.0 2.384185791015625e-07 -1.5707759422114869 1.889864076787262e-05 -1.5708028278746546 -1.1746083394825746e-05 -3.163014547169496e-06 0.0 0.0 -0.0 0.0 0.0 0.0 -0.16833122074604034 -0.10999945551156998 -0.1824081391096115 -0.036185555160045624 0.00744536891579628 -0.0454815998673439 7.180385735912739e-21 -0.00020534216309897602 -8.90303635969758e-05 -1.5634248484275304e-05 4.61023728348664e-06 0.0 -0.0010653786747307553 -0.23365604513041938 1.080295794742013 -0.005108289429283648 -2.2186972885937153 2.2193563766445177 0.0 0.0 0.0 0.0 0.0 0.0 0.45066809093967597 -0.033040572895128656 -0.18680452569031722 -0.0004949419994933252 0.0014020702824115755 -0.012212180013636536 -0.0010369009249316316 -0.23365603829458223 1.0802958470402677 -0.00506264323746423 -2.2186881488822174 2.2193475361807398 0.0 0.0 0.0 0.0 0.0 0.0 0 27.25 27.25 27.0 31.5 33.75 34.25 0.418266 7 253 253 253 253 253 253 1 -0.13407529890537262 -9.251194953918457 0.05746084079146385 0.0 1.0 0.0 47.68688201904297 47.75047302246094 0.5192136168479919 47.584930419921875 47.6279296875 47.55626678466797 47.498931884765625 47.59926223754883 47.31260681152344 0 4 0.0003089562596869655
4033.1389999999997 6.776263578034403e-21 -1.5707963267948966 8.881784197001252e-16 -1.5707963267948966 4.440875157841681e-16 8.881784197001252e-16 0.0 0.0 0.0 0.0 0.0 0.0 0.0 0.0 0.0 0.0 0.0 0.0 4.666362115029961e-21 -0.00018504855688661337 -8.210522355511785e-05 -1.436523689335445e-05 3.82584948965814e-06 0.0 5.127773199673231e-20 -0.002035203217395383 -0.000904299633709121 -0.0001211790656344213 3.2497438566789436e-05 0.0 3.129196193185635e-05 -1.5707605572864232 2.748170961552887e-05 -1.5707879963686828 -4.116688863575746e-06 1.2023176168440841e-05 0.0 0.0 -0.0 0.0 0.0 0.0 -0.10328832268714905 -0.1650620698928833 -0.15741775929927826 -0.05070726200938225 0.002803836017847061 -0.034515708684921265 4.666362115029961e-21 -0.00018504855688661337 -8.210522355511785e-05 -1.436523689335445e-05 3.82584948965814e-06 0.0 -0.0010771878072900302 -0.2336560807551418 1.0802957593799953 -0.00512538768318918 -2.2187435996418685 2.219402712609407 0.0 0.0 0.0 0.0 0.0 0.0 0.3438997482172726 -0.01675096129255843 -0.349725630390607 -0.0023159778818532973 0.0011092028747292115 -0.01004993722234001 -0.0010369009249316316 -0.23365603829458223 1.0802958470402677 -0.00506264323746423 -2.2186881488822174 2.2193475361807398 0.0 0.0 0.0 0.0 0.0 0.0 0 27.25 27.25 27.0 31.5 33.75 34.25 0.424366 7 253 253 253 253 253 253 1 -0.13407529890537262 -9.21288776397705 0.15322890877723694 0.0 1.0 0.0 47.70389938354492 47.751365661621094 0.532641589641571 47.61359405517578 47.6279296875 47.57059860229492 47.498931884765625 47.59926223754883 47.32693862915039 0 4 0.00027343336114427075
4033.239 6.776263578034403e-21 -1.5707963267948966 8.881784197001252e-16 -1.5707963267948966 4.440875157841681e-16 8.881784197001252e-16 0.0 0.0 0.0 0.0 0.0 0.0 0.0 0.0 0.0 0.0 0.0 0.0 -9.028173938417656e-21 -0.00028464122442528605 -0.00011042422556784004 -1.719594729365781e-05 5.086843884782866e-06 0.0 -9.920881967425222e-20 -0.0031305442190159693 -0.001216202560635319 -0.00014505773572338413 4.3208547843342364e-05 0.0 1.2145281289122067e-05 -1.5707759422114869 -6.99663132763817e-06 -1.5707844705733187 2.2697477106703445e-05 8.58306884765625e-06 0.0 0.0 -0.0 0.0 0.0 0.0 -0.18539275228977203 -0.15331725776195526 -0.17732663452625275 -0.06485525518655777 -0.0006822124123573303 -0.049469850957393646 -9.028173938417656e-21 -0.00028464122442528605 -0.00011042422556784004 -1.719594729365781e-05 5.086843884782866e-06 0.0 -0.0010482465291882237 -0.23365605413979973 1.080295830554368 -0.005061601782236886 -2.218722481493415 2.219381933557532 0.0 0.0 0.0 0.0 0.0 0.0 0.757830494526026 -0.010175813421643481 -0.12321667714528557 0.0016005632033515864 0.0052033385483328965 -0.016624662843762274 -0.0010369009249316316 -0.23365603829458223 1.0802958470402677 -0.00506264323746423 -2.2186881488822174 2.2193475361807398 0.0 0.0 0.0 0.0 0.0 0.0 0 27.25 27.25 27.0 31.5 33.75 34.25 0.416575 7 253 253 253 253 253 253 1 -0.15322890877723694 -9.289502143859863 0.05746084079146385 0.0 1.0 0.0 47.707481384277344 47.76121520996094 0.5527834892272949 47.61359405517578 47.65659713745117 47.584930419921875 47.513267517089844 47.61359405517578 47.34127426147461 0 4 0.0004628554597729817
4033.339 6.776263578034403e-21 -1.5707963267948966 8.881784197001252e-16 -1.5707963267948966 4.440875157841681e-16 8.881784197001252e-16 0.0 0.0 0.0 0.0 0.0 0.0 0.0 0.0 0.0 0.0 0.0 0.0 5.216753473559184e-21 -0.00011922472913283855 -4.2611067328834906e-05 -4.171279670117656e-06 1.3455066891765455e-06 0.0 5.732587453586702e-20 -0.0013112587747179294 -0.00046931449076257367 -3.518715358565933e-05 1.1428970399891078e-05 0.0 -2.2236500875294496e-05 -1.5707994900145472 1.5083943502247621e-05 -1.5707809027483854 1.9085406165686436e-05 -6.500874654591371e-06 0.0 0.0 -0.0 0.0 0.0 0.0 -0.1228000670671463 -0.20710748434066772 -0.1991547793149948 -0.04833352938294411 -0.008884377777576447 -0.037023574113845825 5.216753473559184e-21 -0.00011922472913283855 -4.2611067328834906e-05 -4.171279670117656e-06 1.3455066891765455e-06 0.0 -0.001046263176305316 -0.23365602774108585 1.080295824556998 -0.00508933452788946 -2.218696993801367 2.2193563234070774 0.0 0.0 0.0 0.0 0.0 0.0 0.568430088835882 -0.02522085992938007 -0.37275199078873134 -0.003558863315744443 -0.005221691756575045 -0.012710624659722225 -0.0010369009249316316 -0.23365603829458223 1.0802958470402677 -0.00506264323746423 -2.2186881488822174 2.2193475361807398 0.0 0.0 0.0 0.0 0.0 0.0 0 27.25 27.25 27.0 31.5 33.75 34.25 0.415621 7 253 253 253 253 253 253 1 0.05746084079146385 -9.251194953918457 0.019153613597154617 0.0 1.0 0.0 47.72002029418945 47.75942611694336 0.5281655788421631 47.6279296875 47.64226531982422 47.584930419921875 47.513267517089844 47.61359405517578 47.34127426147461 0 4 0.00020356788809294812
4033.439 6.776263578034403e-21 -1.5707963267948966 8.881784197001252e-16 -1.5707963267948966 4.440875157841681e-16 8.881784197001252e-16 0.0 0.0 0.0 0.0 0.0 0.0 0.0 0.0 0.0 0.0 0.0 0.0 -1.373787215883037e-20 -0.0002609757357276976 -0.00012643855006899685 -1.8428130715619773e-05 6.23288133283495e-06 0.0 -1.5096276077141908e-19 -0.002870266317817576 -0.0013925829110285094 -0.0001554519306852096 5.2943188207081665e-05 0.0 -3.163014547169496e-06 -1.570768965750478 1.5083943502247621e-05 -1.5707809168782951 -2.4143849508106996e-05 -3.163014547169496e-06 0.0 0.0 -0.0 0.0 0.0 0.0 -0.12489815056324005 -0.1841268539428711 -0.12222625315189362 -0.055381517857313156 0.009607765823602676 -0.038147859275341034 -1.373787215883037e-20 -0.0002609757357276976 -0.00012643855006899685 -1.8428130715619773e-05 6.23288133283495e-06 0.0 -0.0010741146092948122 -0.23365602156475768 1.0802957878093373 -0.005153616525518096 -2.2187018150486555 2.219361013483073 0.0 0.0 0.0 0.0 0.0 0.0 0.46830251299909437 -0.05276469625204808 -0.26210585079478166 -0.0024745846481945173 0.0024209284942045247 -0.015538245361709791 -0.0010369009249316316 -0.23365603829458223 1.0802958470402677 -0.00506264323746423 -2.2186881488822174 2.2193475361807398 0.0 0.0 0.0 0.0 0.0 0.0 0 27.25 27.25 27.0 31.5 33.75 34.25 0.422223 7 253 253 253 253 253 253 1 -0.05746084079146385 -9.308655738830566 0.13407529890537262 0.0 1.0 0.0 47.70927429199219 47.77465057373047 0.5124996304512024 47.61359405517578 47.64226531982422 47.584930419921875 47.513267517089844 47.61359405517578 47.32693862915039 0 4 0.00035727887734537944
4033.5389999999998 6.776263578034403e-21 -1.5707963267948966 8.881784197001252e-16 -1.5707963267948966 4.440875157841681e-16 8.881784197001252e-16 0.0 0.0 0.0 0.0 0.0 0.0 0.0 0.0 0.0 0.0 0.0 0.0 4.502861062008975e-21 0.00016913563013076782 3.883534373017028e-05 6.231098268472124e-07 -2.6409611564304214e-07 0.0 4.948105193395323e-20 0.0018601894657707511 0.000427729000522045 5.256291029231633e-06 -2.2432788172460867e-06 0.0 1.217345561599359e-05 -1.5707994900145472 1.1746083394825746e-05 -1.5707994900145472 2.270466211484745e-05 1.544952465337701e-05 0.0 0.0 -0.0 0.0 0.0 0.0 -0.1614631563425064 -0.15332499146461487 -0.19832144677639008 -0.062143441289663315 0.0021297894418239594 -0.054107651114463806 4.502861062008975e-21 0.00016913563013076782 3.883534373017028e-05 6.231098268472124e-07 -2.6409611564304214e-07 0.0 -0.001034365338992887 -0.23365607246123726 1.0802958331945314 -0.005047215991499887 -2.218716051185437 2.2193754328275572 0.0 0.0 0.0 0.0 0.0 0.0 0.3968390719663249 0.09712592500927537 -0.13933006872725937 0.002104564128175997 4.562827579772582e-05 -0.010634384159300453 -0.0010369009249316316 -0.23365603829458223 1.0802958470402677 -0.00506264323746423 -2.2186881488822174 2.2193475361807398 0.0 0.0 0.0 0.0 0.0 0.0 0 27.25 27.25 27.0 31.5 33.75 34.25 0.418734 7 253 253 253 253 253 253 1 -0.13407528400421143 -9.174580574035645 0.038307227194309235 0.0 1.0 0.0 47.69673538208008 47.751365661621094 0.5192136168479919 47.59926223754883 47.61359405517578 47.5275993347168 47.498931884765625 47.584930419921875 47.31260681152344 0 4 0.0003463426764938049
4033.6389999999997 6.776263578034403e-21 -1.5707963267948966 8.881784197001252e-16 -1.5707963267948966 4.440875157841681e-16 8.881784197001252e-16 0.0 0.0 0.0 0.0 0.0 0.0 0.0 0.0 0.0 0.0 0.0 0.0 -8.832298740665772e-22 0.00011928480671485886 2.1286678020260297e-05 3.7949678244331153e-06 -1.154615915766044e-06 0.0 -9.705637990298658e-21 0.0013119195723575098 0.00023444955589601682 3.2012744149839064e-05 -9.807510898569223e-06 0.0 5.111960035719676e-06 -1.570796327 -2.798598330855384e-08 -1.5707994900145472 3.5762786865234375e-06 -6.500874654591371e-06 0.0 0.0 -0.0 0.0 0.0 0.0 -0.14295949041843414 -0.12772193551063538 -0.1797487884759903 -0.07061789929866791 -0.011354077607393265 -0.048454418778419495 -8.832298740665772e-22 0.00011928480671485886 2.1286678020260297e-05 3.7949678244331153e-06 -1.154615915766044e-06 0.0 -0.0010350212957747859 -0.23365604714261878 1.0802958476402915 -0.0050422561662070925 -2.2186876973009 2.2193470344856867 0.0 0.0 0.0 0.0 0.0 0.0 0.4147182875772684 -0.00926692125585725 -0.2540456983417091 -0.004356792196007568 -0.00072782690390964 -0.014168419796078998 -0.0010369009249316316 -0.23365603829458223 1.0802958470402677 -0.00506264323746423 -2.2186881488822174 2.2193475361807398 0.0 0.0 0.0 0.0 0.0 0.0 0 27.25 27.25 27.0 31.5 33.75 34.25 0.422049 7 253 253 253 253 253 253 1 0.0 -9.27034854888916 0.05746084079146385 0.0 1.0 0.0 47.67882537841797 47.73076629638672 0.548307478427887 47.57059860229492 47.584930419921875 47.5275993347168 47.47026824951172 47.57059860229492 47.28394317626953 0 4 0.0002605119880172424
4033.739 6.776263578034403e-21 -1.5707963267948966 8.881784197001252e-16 -1.5707963267948966 4.440875157841681e-16 8.881784197001252e-16 0.0 0.0 0.0 0.0 0.0 0.0 0.0 0.0 0.0 0.0 0.0 0.0 -4.932435583491439e-21 -0.00016973835590761155 -9.294831397710368e-05 -8.274399078800343e-06 2.986251047332189e-06 0.0 -5.4201562016875636e-20 -0.0018668182423525388 -0.0010237244091123843 -6.979933041021182e-05 2.5365741920500606e-05 0.0 2.384185791015625e-07 -1.570822378198141 -3.475942094155471e-06 -1.5707844895180934 -2.4143849508106996e-05 -3.163014547169496e-06 0.0 0.0 -0.0 0.0 0.0 0.0 -0.19680072367191315 -0.15983083844184875 -0.16071836650371552 -0.04374386742711067 -0.01616400107741356 -0.04509354382753372 -4.932435583491439e-21 -0.00016973835590761155 -9.294831397710368e-05 -8.274399078800343e-06 2.986251047332189e-06 0.0 -0.0010148105165776588 -0.23365601752094028 1.080295881340171 -0.005065958204182792 -2.2186656407811527 2.21932523268085 0.0 0.0 0.0 0.0 0.0 0.0 0.5340639969260618 -0.064036067354078 0.025660006280002888 0.0043392767702920354 0.002775002750562111 -0.012647646870204855 -0.0010369009249316316 -0.23365603829458223 1.0802958470402677 -0.00506264323746423 -2.2186881488822174 2.2193475361807398 0.0 0.0 0.0 0.0 0.0 0.0 0 27.25 27.25 27.0 31.5 33.75 34.25 0.415791 7 253 253 253 253 253 253 1 0.0 -9.232041358947754 0.1149216815829277 0.0 1.0 0.0 47.708377838134766 47.752262115478516 0.5192136168479919 47.61359405517578 47.6279296875 47.57059860229492 47.498931884765625 47.59926223754883 47.31260681152344 0 4 0.00020864271694639078
4033.839 6.776263578034403e-21 -1.5707963267948966 8.881784197001252e-16 -1.5707963267948966 4.440875157841681e-16 8.881784197001252e-16 0.0 0.0 0.0 0.0 0.0 0.0 0.0 0.0 0.0 0.0 0.0 0.0 4.5445698672511144e-21 -0.00012264451652299613 -5.8858808188233525e-05 -6.778405804652721e-06 1.9075664567935746e-06 0.0 4.993938218985765e-20 -0.0013488703044564061 -0.0006482656629693548 -5.717976595197652e-05 1.620320513847195e-05 0.0 -3.163014547169496e-06 -1.570806165734762 -3.473865490377648e-06 -1.5708118877806605 -7.931386129200746e-06 1.1995711247436702e-05 0.0 0.0 -0.0 0.0 0.0 0.0 -0.11370263993740082 -0.18151703476905823 -0.22963382303714752 -0.06273700296878815 -0.006617899984121323 -0.0534527525305748 4.5445698672511144e-21 -0.00012264451652299613 -5.8858808188233525e-05 -6.778405804652721e-06 1.9075664567935746e-06 0.0 -0.001026137806009381 -0.23365603597014628 1.080295867177916 -0.005056184216620937 -2.2186741355576443 2.219333578920678 0.0 0.0 0.0 0.0 0.0 0.0 0.4364121660069469 0.08651441790636201 -0.08252476689317366 0.0021286530563318935 -0.0018566475004469659 -0.01022607261037399 -0.0010369009249316316 -0.23365603829458223 1.0802958470402677 -0.00506264323746423 -2.2186881488822174 2.2193475361807398 0.0 0.0 0.0 0.0 0.0 0.0 0 27.25 27.25 27.0 31.5 33.75 34.25 0.416272 7 253 253 253 253 253 253 1 -0.05746084079146385 -9.232041358947754 0.17238251864910126 0.0 1.0 0.0 47.72180938720703 47.78181838989258 0.5751633644104004 47.6279296875 47.64226531982422 47.59926223754883 47.5275993347168 47.6279296875 47.34127426147461 0 4 0.00016939435226959176
4033.939 6.776263578034403e-21 -1.5707963267948966 8.881784197001252e-16 -1.5707963267948966 4.440875157841681e-16 8.881784197001252e-16 0.0 0.0 0.0 0.0 0.0 0.0 0.0 0.0 0.0 0.0 0.0 0.0 -7.885785308822661e-22 4.5469914766727015e-05 -2.556375511630904e-05 -6.250119440665003e-06 1.6010592389648082e-06 0.0 -8.665533532680275e-21 0.0005000877318506619 -0.00028155691055974314 -5.272336266809038e-05 1.3599678614762574e-05 0.0 3.121591726085171e-05 -1.5707994900145472 -1.541256824566517e-05 -1.570815225640768 1.9085406165686436e-05 -6.500874654591371e-06 0.0 0.0 -0.0 0.0 0.0 0.0 -0.14448554813861847 -0.15067261457443237 -0.18083547055721283 -0.04273756593465805 0.0023678429424762726 -0.05798204988241196 -7.885785308822661e-22 4.5469914766727015e-05 -2.556375511630904e-05 -6.250119440665003e-06 1.6010592389648082e-06 0.0 -0.0010153299373612777 -0.23365608127707055 1.08029587749075 -0.004958065693412487 -2.2186914487403993 2.2193508436913283 0.0 0.0 0.0 0.0 0.0 0.0 0.7796815335690104 -0.014894168959108564 -0.03435628300271026 0.005310917704944067 -0.004455951960219141 -0.014203473470931203 -0.0010369009249316316 -0.23365603829458223 1.0802958470402677 -0.00506264323746423 -2.2186881488822174 2.2193475361807398 0.0 0.0 0.0 0.0 0.0 0.0 0 27.25 27.25 27.0 31.5 33.75 34.25 0.415675 7 253 253 253 253 253 253 1 -0.05746084079146385 -9.289502143859863 0.09576806426048279 0.0 1.0 0.0 47.73434829711914 47.77644348144531 0.5192136168479919 47.6279296875 47.64226531982422 47.584930419921875 47.513267517089844 47.6279296875 47.34127426147461 0 4 0.00020864271694639078
4034.0389999999998 6.776263578034403e-21 -1.5707963267948966 8.881784197001252e-16 -1.5707963267948966 4.440875157841681e-16 8.881784197001252e-16 0.0 0.0 0.0 0.0 0.0 0.0 0.0 0.0 0.0 0.0 0.0 0.0 3.3554018112200623e-21 2.9675762561964802e-05 -9.104292985284701e-06 -1.4537596371155814e-06 -1.1454015691469976e-07 0.0 3.687184654161388e-20 0.0003263803185701043 -0.00010027387492754162 -1.2263301609217772e-05 -9.72924260371506e-07 0.0 -3.163014547169496e-06 -1.5707654965375077 0.0 -1.570796327 -4.593526021778871e-06 2.3925304049043916e-05 0.0 0.0 -0.0 0.0 0.0 0.0 -0.11462171375751495 -0.17824895679950714 -0.20605586469173431 -0.0558493547141552 -0.01013386994600296 -0.04382844269275665 3.3554018112200623e-21 2.9675762561964802e-05 -9.104292985284701e-06 -1.4537596371155814e-06 -1.1454015691469976e-07 0.0 -0.0010663869035104948 -0.23365603146517588 1.0802958097086441 -0.005132019562325842 -2.2187115913207727 2.219370951943793 0.0 0.0 0.0 0.0 0.0 0.0 0.5410222946586377 -0.09884110523437173 -0.1826557735056197 0.0007248106256195744 -0.0032552802239099515 -0.01609423819769377 -0.0010369009249316316 -0.23365603829458223 1.0802958470402677 -0.00506264323746423 -2.2186881488822174 2.2193475361807398 0.0 0.0 0.0 0.0 0.0 0.0 0 27.25 27.25 27.0 31.5 33.75 34.25 0.41464 7 253 253 253 253 253 253 1 -0.1149216815829277 -9.27034854888916 0.07661445438861847 0.0 1.0 0.0 47.73076629638672 47.77286148071289 0.5013096928596497 47.61359405517578 47.6279296875 47.57059860229492 47.513267517089844 47.6279296875 47.32693862915039 0 4 0.00010315571671526413
4034.1389999999997 6.776263578034403e-21 -1.5707963267948966 8.881784197001252e-16 -1.5707963267948966 4.440875157841681e-16 8.881784197001252e-16 0.0 0.0 0.0 0.0 0.0 0.0 0.0 0.0 0.0 0.0 0.0 0.0 1.0457544056393206e-21 -2.2505089418700663e-06 -1.4125808775133919e-05 3.368671741554863e-07 3.5822154131892603e-07 0.0 1.1491588774049633e-20 -2.475157215526694e-05 -0.00015558039153382755 2.841669072313436e-06 3.042796937702279e-06 0.0 -3.163014547169496e-06 -1.570796327 2.4143849508106996e-05 -1.570784494463016 -2.748170961552887e-05 0.0 0.0 0.0 -0.0 0.0 0.0 0.0 -0.0817699283361435 -0.1842035949230194 -0.2216935008764267 -0.039987459778785706 -0.009975019842386246 -0.058281123638153076 1.0457544056393206e-21 -2.2505089418700663e-06 -1.4125808775133919e-05 3.368671741554863e-07 3.5822154131892603e-07 0.0 -0.0010534454156776742 -0.23365602727008572 1.0802958080695657 -0.005136558119080848 -2.21869075743199 2.2193500215308286 0.0 0.0 0.0 0.0 0.0 0.0 0.47054892384599617 -0.023973252922467523 -0.17256170001069313 -0.0041309720405320145 -0.0010677920432492335 -0.0130136805279981 -0.0010369009249316316 -0.23365603829458223 1.0802958470402677 -0.00506264323746423 -2.2186881488822174 2.2193475361807398 0.0 0.0 0.0 0.0 0.0 0.0 0 27.25 27.25 27.0 31.5 33.75 34.25 0.413526 7 253 253 253 253 253 253 1 -0.05746084079146385 -9.327810287475586 0.07661445438861847 0.0 1.0 0.0 47.682403564453125 47.731666564941406 0.46997785568237305 47.584930419921875 47.59926223754883 47.541934967041016 47.48460006713867 47.584930419921875 47.298274993896484 0 4 8.619546861154959e-05
4034.239 6.776263578034403e-21 -1.5707963267948966 8.881784197001252e-16 -1.5707963267948966 4.440875157841681e-16 8.881784197001252e-16 0.0 0.0 0.0 0.0 0.0 0.0 0.0 0.0 0.0 0.0 0.0 0.0 -4.724992983809275e-21 -0.0002108241751557216 -0.00010786793427541852 -1.2541594514914323e-05 3.6664055187429767e-06 0.0 -5.192201486762194e-20 -0.002318688826572901 -0.0011880478035543932 -0.00010579559098391244 3.114309302218396e-05 0.0 1.5664099919376895e-05 -1.5708066425719203 1.1746083394825746e-05 -1.5708190403380335 -2.4143849508106996e-05 -3.163014547169496e-06 0.0 0.0 -0.0 0.0 0.0 0.0 -0.2172314077615738 -0.14740191400051117 -0.20460478961467743 -0.05490155890583992 0.0003868378698825836 -0.03765126317739487 -4.724992983809275e-21 -0.0002108241751557216 -0.00010786793427541852 -1.2541594514914323e-05 3.6664055187429767e-06 0.0 -0.0010296970708947623 -0.23365605804011602 1.0802958462445824 -0.005044885155910038 -2.2186717646725316 2.219330980365084 0.0 0.0 0.0 0.0 0.0 0.0 0.4414215697037145 -0.12068720226980076 -0.11992687803304984 0.002217442055136727 8.044210989598268e-05 -0.009637026638617286 -0.0010369009249316316 -0.23365603829458223 1.0802958470402677 -0.00506264323746423 -2.2186881488822174 2.2193475361807398 0.0 0.0 0.0 0.0 0.0 0.0 0 27.25 27.25 27.0 31.5 33.75 34.25 0.41765 7 253 253 253 253 253 253 1 -0.1149216815829277 -9.251194953918457 0.1149216815829277 0.0 1.0 0.0 47.731666564941406 47.77644348144531 0.5348795652389526 47.6279296875 47.65659713745117 47.59926223754883 47.5275993347168 47.6279296875 47.34127426147461 0 4 0.000273369878414087
4034.339 6.776263578034403e-21 -1.5707963267948966 8.881784197001252e-16 -1.5707963267948966 4.440875157841681e-16 8.881784197001252e-16 0.0 0.0 0.0 0.0 0.0 0.0 0.0 0.0 0.0 0.0 0.0 0.0 -2.6373791511620572e-21 -0.0003700297966133803 -0.0001510720030637458 -1.714106838335283e-05 5.2314444474177435e-06 0.0 -2.8981639345562206e-20 -0.004069665736098643 -0.0016638935646124842 -0.000144594816149321 4.443681052814612e-05 0.0 1.565710590512026e-05 -1.5707655034132877 2.748170961552887e-05 -1.570815225640768 -7.931386129200746e-06 -9.838734762013246e-06 0.0 0.0 -0.0 0.0 0.0 0.0 -0.11444930732250214 -0.1493997573852539 -0.14734162390232086 -0.03865016996860504 -0.003917615860700607 -0.04272161424160004 -2.6373791511620572e-21 -0.0003700297966133803 -0.0001510720030637458 -1.714106838335283e-05 5.2314444474177435e-06 0.0 -0.0010739663294762152 -0.23365607445712167 1.080295770990369 -0.0050869288159521835 -2.2187070130902056 2.219365884656102 0.0 0.0 0.0 0.0 0.0 0.0 0.29108760629312264 0.10981019245827826 -0.1918038572836872 -0.0014833640295713068 0.0009900023911186594 -0.0060714821635305324 -0.0010369009249316316 -0.23365603829458223 1.0802958470402677 -0.00506264323746423 -2.2186881488822174 2.2193475361807398 0.0 0.0 0.0 0.0 0.0 0.0 0 27.25 27.25 27.0 31.5 33.75 34.25 0.420759 7 253 253 253 253 253 253 1 -0.07661445438861847 -9.251194953918457 0.019153613597154617 0.0 1.0 0.0 47.72897720336914 47.780921936035156 0.5527834892272949 47.6279296875 47.670928955078125 47.584930419921875 47.5275993347168 47.64226531982422 47.35560607910156 0 4 0.0005816750490339473
4034.439 6.776263578034403e-21 -1.5707963267948966 8.881784197001252e-16 -1.5707963267948966 4.440875157841681e-16 8.881784197001252e-16 0.0 0.0 0.0 0.0 0.0 0.0 0.0 0.0 0.0 0.0 0.0 0.0 1.1728084995442203e-20 0.0001148286901297979 1.6836904251249507e-05 -2.0148761450400343e-06 5.6704273276864114e-08 0.0 1.2887760917289539e-19 0.001262910183106645 0.0001854401666451519 -1.6996645101025788e-05 4.816560332725498e-07 0.0 2.384185791015625e-07 -1.5707793873610463 2.748170961552887e-05 -1.5707809509097679 -1.1746083394825746e-05 -3.163014547169496e-06 0.0 0.0 -0.0 0.0 0.0 0.0 -0.170561745762825 -0.18811765313148499 -0.20929963886737823 -0.06455963850021362 -0.009689942002296448 -0.03448588401079178 1.1728084995442203e-20 0.0001148286901297979 1.6836904251249507e-05 -2.0148761450400343e-06 5.6704273276864114e-08 0.0 -0.0010686266602322123 -0.23365603989932446 1.0802957813435339 -0.005138307169408646 -2.21871072108265 2.2193698777708617 0.0 0.0 0.0 0.0 0.0 0.0 0.5273944793594719 -0.07231982058129374 -0.191454412457485 -0.0018917540959246552 -0.001518522589881569 -0.01454830491171425 -0.0010369009249316316 -0.23365603829458223 1.0802958470402677 -0.00506264323746423 -2.2186881488822174 2.2193475361807398 0.0 0.0 0.0 0.0 0.0 0.0 0 27.25 27.25 27.0 31.5 33.75 34.25 0.423452 7 253 253 253 253 253 253 1 -0.13407529890537262 -9.27034854888916 0.1149216815829277 0.0 1.0 0.0 47.736141204833984 47.77375411987305 0.5572594404220581 47.61359405517578 47.64226531982422 47.584930419921875 47.513267517089844 47.61359405517578 47.32693862915039 0 4 0.0002605119880172424
4034.5389999999998 6.776263578034403e-21 -1.5707963267948966 8.881784197001252e-16 -1.5707963267948966 4.440875157841681e-16 8.881784197001252e-16 0.0 0.0 0.0 0.0 0.0 0.0 0.0 0.0 0.0 0.0 0.0 0.0 2.1009820841172592e-22 -0.00021415385708678514 -0.00011129674385301769 -1.707893534330651e-05 4.6540299081243575e-06 0.0 2.308727833578969e-21 -0.002355309508466575 -0.0012258123923114483 -0.00014407068477941782 3.95321484233014e-05 0.0 1.2159347534179688e-05 -1.5707793873610463 1.5083943502247621e-05 -1.5707994900145472 -2.4143849508106996e-05 -9.838734762013246e-06 0.0 0.0 -0.0 0.0 0.0 0.0 -0.17060981690883636 -0.17299415171146393 -0.12187473475933075 -0.054506365209817886 0.004410926252603531 -0.03249412775039673 2.1009820841172592e-22 -0.00021415385708678514 -0.00011129674385301769 -1.707893534330651e-05 4.6540299081243575e-06 0.0 -0.001059119253353991 -0.2336560468381083 1.0802958043341713 -0.005097029204488934 -2.2186917419868686 2.2193508616825146 0.0 0.0 0.0 0.0 0.0 0.0 0.6187110323535203 0.026974103765214353 -0.43690848236856433 -0.007212400985677955 0.006010030247166376 -0.0172886733022633 -0.0010369009249316316 -0.23365603829458223 1.0802958470402677 -0.00506264323746423 -2.2186881488822174 2.2193475361807398 0.0 0.0 0.0 0.0 0.0 0.0 0 27.25 27.25 27.0 31.5 33.75 34.25 0.417341 7 253 253 253 253 253 253 1 -0.09576806426048279 -9.232041358947754 0.17238251864910126 0.0 1.0 0.0 47.72539520263672 47.780025482177734 0.5594974160194397 47.6279296875 47.65659713745117 47.584930419921875 47.513267517089844 47.64226531982422 47.35560607910156 0 4 0.00027309330107527785
4034.6389999999997 6.776263578034403e-21 -1.5707963267948966 8.881784197001252e-16 -1.5707963267948966 4.440875157841681e-16 8.881784197001252e-16 0.0 0.0 0.0 0.0 0.0 0.0 0.0 0.0 0.0 0.0 0.0 0.0 -1.1873830341964925e-20 -0.00020304520148783922 -0.00010020392073784024 -1.094255640055053e-05 3.4124379908462288e-06 0.0 -1.3047917316192712e-19 -0.0022331341111534423 -0.0011036369949983154 -9.230677464249515e-05 2.8985846936068543e-05 0.0 2.7739286451833323e-05 -1.5707994900145472 1.1746083394825746e-05 -1.570815225640768 -3.129640688115387e-05 -3.163014547169496e-06 0.0 0.0 -0.0 0.0 0.0 0.0 -0.14090444147586823 -0.13355818390846252 -0.16143213212490082 -0.04157717898488045 -0.003650099039077759 -0.025273842737078667 -1.1873830341964925e-20 -0.00020304520148783922 -0.00010020392073784024 -1.094255640055053e-05 3.4124379908462288e-06 0.0 -0.0010345307928689266 -0.23365606450652315 1.0802958370451206 -0.005051595215600577 -2.2186797066791275 2.219338910604849 0.0 0.0 0.0 0.0 0.0 0.0 0.31835124537622195 -0.1361326612888321 -0.16133568655744202 -0.0018593768784769219 0.0028775576508050906 -0.011370107814496714 -0.0010369009249316316 -0.23365603829458223 1.0802958470402677 -0.00506264323746423 -2.2186881488822174 2.2193475361807398 0.0 0.0 0.0 0.0 0.0 0.0 0 27.25 27.25 27.0 31.5 33.75 34.25 0.422082 7 253 253 253 253 253 253 1 0.0 -9.385271072387695 0.07661445438861847 0.0 1.0 0.0 47.702110290527344 47.75047302246094 0.5460695028305054 47.61359405517578 47.61359405517578 47.55626678466797 47.498931884765625 47.61359405517578 47.31260681152344 0 4 0.00027309330107527785
4034.739 6.776263578034403e-21 -1.5707963267948966 8.881784197001252e-16 -1.5707963267948966 4.440875157841681e-16 8.881784197001252e-16 0.0 0.0 0.0 0.0 0.0 0.0 0.0 0.0 0.0 0.0 0.0 0.0 2.9821111143081497e-21 -0.00016501534264534712 -8.823203097563237e-05 -1.0463551006978378e-05 2.9547336453106254e-06 0.0 3.276982918204824e-20 -0.0018148735108866007 -0.0009717796776464461 -8.826608614644004e-05 2.509802717895743e-05 0.0 1.5664099919376895e-05 -1.5707759422114869 -3.4917914035759168e-06 -1.5707879823497315 -1.1746083394825746e-05 8.58306884765625e-06 0.0 0.0 -0.0 0.0 0.0 0.0 -0.14545293152332306 -0.17291760444641113 -0.16021184623241425 -0.05725347623229027 -0.003178998827934265 -0.05061858892440796 2.9821111143081497e-21 -0.00016501534264534712 -8.823203097563237e-05 -1.0463551006978378e-05 2.9547336453106254e-06 0.0 -0.0010522266878121443 -0.23365604150199035 1.08029582628821 -0.00509582546978864 -2.2187069739355474 2.2193663810507895 0.0 0.0 0.0 0.0 0.0 0.0 0.7385422018929212 0.08146212536643785 -0.1223027549707009 0.00107862610048425 0.000852808425278375 -0.012422813891413413 -0.0010369009249316316 -0.23365603829458223 1.0802958470402677 -0.00506264323746423 -2.2186881488822174 2.2193475361807398 0.0 0.0 0.0 0.0 0.0 0.0 0 27.25 27.25 27.0 31.5 33.75 34.25 0.420166 7 253 253 253 253 253 253 1 -0.09576806426048279 -9.174580574035645 0.05746084079146385 0.0 1.0 0.0 47.68419647216797 47.73076629638672 0.5729253888130188 47.584930419921875 47.6279296875 47.55626678466797 47.498931884765625 47.59926223754883 47.31260681152344 0 4 0.00020384582967380993
4034.839 6.776263578034403e-21 -1.5707963267948966 8.881784197001252e-16 -1.5707963267948966 4.440875157841681e-16 8.881784197001252e-16 0.0 0.0 0.0 0.0 0.0 0.0 0.0 0.0 0.0 0.0 0.0 0.0 -3.0426404999181793e-21 -0.0001304309698753059 -5.372270243242383e-05 -7.156282663345337e-06 1.6935828170971945e-06 0.0 -3.34349771588237e-20 -0.0014345074868186234 -0.0005916970535886678 -6.036737459427233e-05 1.4385590267208438e-05 0.0 -6.500874654591371e-06 -1.570806165734762 1.1746083394825746e-05 -1.570834299127096 -7.931386129200746e-06 -2.5097523824513246e-05 0.0 0.0 -0.0 0.0 0.0 0.0 -0.11606495082378387 -0.14347660541534424 -0.22907887399196625 -0.04231542348861694 -0.00682632252573967 -0.03279288858175278 -3.0426404999181793e-21 -0.0001304309698753059 -5.372270243242383e-05 -7.156282663345337e-06 1.6935828170971945e-06 0.0 -0.0010321791155537443 -0.2336560518100526 1.0802958483204577 -0.00501072929459579 -2.218650581157602 2.2193095865113546 0.0 0.0 0.0 0.0 0.0 0.0 0.26687314981483534 -0.1357537870983535 -0.08302160945959741 0.003122120767925598 -0.00024937588786486445 -0.010705633015241058 -0.0010369009249316316 -0.23365603829458223 1.0802958470402677 -0.00506264323746423 -2.2186881488822174 2.2193475361807398 0.0 0.0 0.0 0.0 0.0 0.0 0 27.25 27.25 27.0 31.5 33.75 34.25 0.41983 7 253 253 253 253 253 253 1 -0.19153612852096558 -9.289502143859863 0.15322890877723694 0.0 1.0 0.0 47.718231201171875 47.76032257080078 0.5617354512214661 47.61359405517578 47.65659713745117 47.57059860229492 47.513267517089844 47.61359405517578 47.34127426147461 0 4 0.00020377730834297836
4034.939 6.776263578034403e-21 -1.5707963267948966 8.881784197001252e-16 -1.5707963267948966 4.440875157841681e-16 8.881784197001252e-16 0.0 0.0 0.0 0.0 0.0 0.0 0.0 0.0 0.0 0.0 0.0 0.0 -5.138906508486763e-22 -2.7339117878000252e-05 -2.7300917281536385e-05 -2.6406021333968965e-06 5.672869747286313e-07 0.0 -5.647042829239523e-21 -0.00030068139350725805 -0.00030068987646905297 -2.2275003535750725e-05 4.8186351324926385e-06 0.0 -3.163014547169496e-06 -1.570769055197463 -3.43322744811303e-06 -1.5707845133595875 7.1763988671591505e-06 -9.838734762013246e-06 0.0 0.0 -0.0 0.0 0.0 0.0 -0.1600220948457718 -0.1585158109664917 -0.1636006087064743 -0.05842983350157738 -0.0009126700460910797 -0.04667732119560242 -5.138906508486763e-22 -2.7339117878000252e-05 -2.7300917281536385e-05 -2.6406021333968965e-06 5.672869747286313e-07 0.0 -0.0010614377896883173 -0.23365603090759052 1.0802958168946062 -0.005086848729440361 -2.218703100558765 2.2193623878283644 0.0 0.0 0.0 0.0 0.0 0.0 0.4161358155397922 -0.06782471730580013 -0.08538521206704251 -0.0005291495452238297 0.0037739002861790568 -0.008209517223355174 -0.0010369009249316316 -0.23365603829458223 1.0802958470402677 -0.00506264323746423 -2.2186881488822174 2.2193475361807398 0.0 0.0 0.0 0.0 0.0 0.0 0 27.25 27.25 27.0 31.5 33.5 34.25 0.41867 7 253 253 253 253 253 253 1 -0.09576806426048279 -9.289502143859863 0.15322890877723694 0.0 1.0 0.0 47.737037658691406 47.770172119140625 0.5013096928596497 47.61359405517578 47.64226531982422 47.57059860229492 47.513267517089844 47.61359405517578 47.32693862915039 0 4 0.00010055962169038443
4035.0389999999998 6.776263578034403e-21 -1.5707963267948966 8.881784197001252e-16 -1.5707963267948966 4.440875157841681e-16 8.881784197001252e-16 0.0 0.0 0.0 0.0 0.0 0.0 0.0 0.0 0.0 0.0 0.0 0.0 -2.927924119888999e-21 6.237004708964378e-05 2.533400220272597e-05 4.0364097912970465e-06 -1.0863278703254764e-06 0.0 -3.2174378012882147e-20 0.0006859589378509707 0.000279026435960752 3.404944957452579e-05 -9.227459271653143e-06 0.0 -1.0315571920216371e-05 -1.5707994900145472 -6.924747594894143e-06 -1.5707809990711503 -7.931386129200746e-06 -2.175966371709137e-05 0.0 0.0 -0.0 0.0 0.0 0.0 -0.11571936309337616 -0.1317283660173416 -0.11694042384624481 -0.054643478244543076 -0.0117185078561306 -0.037136562168598175 -2.927924119888999e-21 6.237004708964378e-05 2.533400220272597e-05 4.0364097912970465e-06 -1.0863278703254764e-06 0.0 -0.0010353155041357663 -0.23365601188774232 1.080295858515852 -0.005064501289530044 -2.218670744021057 2.21933016255631 0.0 0.0 0.0 0.0 0.0 0.0 0.22956780907894517 0.010876260721647468 -0.4032861856150819 -0.007649246408570933 -0.0012365624327295938 -0.008797155738137876 -0.0010369009249316316 -0.23365603829458223 1.0802958470402677 -0.00506264323746423 -2.2186881488822174 2.2193475361807398 0.0 0.0 0.0 0.0 0.0 0.0 0 27.25 27.25 27.0 31.5 33.5 34.25 0.493449 7 253 253 253 253 253 253 1 -0.1149216815829277 -9.251194953918457 0.09576806426048279 0.0 1.0 0.0 47.7191276550293 47.77465057373047 0.548307478427887 47.6279296875 47.6279296875 47.57059860229492 47.513267517089844 47.6279296875 47.32693862915039 0 4 0.00012159347534179688
4035.1389999999997 6.776263578034403e-21 -1.5707963267948966 8.881784197001252e-16 -1.5707963267948966 4.440875157841681e-16 8.881784197001252e-16 0.0 0.0 0.0 0.0 0.0 0.0 0.0 0.0 0.0 0.0 0.0 0.0 2.6303434711423465e-21 -0.00013312762894202024 -5.6389781093457714e-05 -1.0623560228850693e-05 2.683945922399289e-06 0.0 2.8904324413527815e-20 -0.0014641658542197586 -0.0006210720209796044 -8.961586566279201e-05 2.2797908249203096e-05 0.0 1.2159347534179688e-05 -1.5707759422114869 8.408223287403871e-06 -1.5707690815073256 3.129707693005912e-05 -6.500874654591371e-06 0.0 0.0 -0.0 0.0 0.0 0.0 -0.13277508318424225 -0.1263769119977951 -0.18530245125293732 -0.04455272853374481 -0.0009944997727870941 -0.03432995826005936 2.6303434711423465e-21 -0.00013312762894202024 -5.6389781093457714e-05 -1.0623560228850693e-05 2.683945922399289e-06 0.0 -0.0010565100432872233 -0.23365606091014818 1.0802958038321107 -0.005069539011251728 -2.2187346869264344 2.219394023968088 0.0 0.0 0.0 0.0 0.0 0.0 0.4804308505668012 -0.05767102217035651 -0.13320593707357536 0.0015909596942068913 -0.0018081911088956883 -0.012431557094512114 -0.0010369009249316316 -0.23365603829458223 1.0802958470402677 -0.00506264323746423 -2.2186881488822174 2.2193475361807398 0.0 0.0 0.0 0.0 0.0 0.0 0 27.25 27.25 27.0 31.5 33.5 34.25 0.418163 7 253 253 253 253 253 253 1 -0.05746084079146385 -9.308655738830566 0.07661445438861847 0.0 1.0 0.0 47.689571380615234 47.736141204833984 0.5348795652389526 47.59926223754883 47.61359405517578 47.541934967041016 47.498931884765625 47.59926223754883 47.298274993896484 0 4 0.00020384582967380993
4035.239 6.776263578034403e-21 -1.5707963267948966 8.881784197001252e-16 -1.5707963267948966 4.440875157841681e-16 8.881784197001252e-16 0.0 0.0 0.0 0.0 0.0 0.0 0.0 0.0 0.0 0.0 0.0 0.0 4.2114664963979976e-21 -0.00014645810006186366 -4.3787440517917275e-05 -5.006100309401518e-06 1.3666854101757053e-06 0.0 4.627897317875902e-20 -0.0016107771189188456 -0.0004822709623957132 -4.222934667638236e-05 1.1608865998167978e-05 0.0 -3.163014547169496e-06 -1.5707690414240751 1.1746083394825746e-05 -1.570796327 -7.931386129200746e-06 8.569431884097867e-06 0.0 0.0 -0.0 0.0 0.0 0.0 -0.1033753901720047 -0.1710294932126999 -0.18336151540279388 -0.06133268401026726 -0.021490156650543213 -0.05091485381126404 4.2114664963979976e-21 -0.00014645810006186366 -4.3787440517917275e-05 -5.006100309401518e-06 1.3666854101757053e-06 0.0 -0.0010692515620007539 -0.23365603637251242 1.0802957959834822 -0.005127789832169198 -2.2187064152127203 2.2193656208182673 0.0 0.0 0.0 0.0 0.0 0.0 0.28032986357693573 -0.06856690996455765 -0.18277938490069343 0.0008659599730863686 0.004462394452189023 -0.009253501936760625 -0.0010369009249316316 -0.23365603829458223 1.0802958470402677 -0.00506264323746423 -2.2186881488822174 2.2193475361807398 0.0 0.0 0.0 0.0 0.0 0.0 0 27.25 27.25 27.0 31.5 33.5 34.25 0.417313 7 253 253 253 253 253 253 1 -0.019153613597154617 -9.308655738830566 0.05746084079146385 0.0 1.0 0.0 47.693153381347656 47.75315856933594 0.6087331771850586 47.61359405517578 47.6279296875 47.57059860229492 47.498931884765625 47.61359405517578 47.31260681152344 0 4 0.0002728537037910428
4035.339 6.776263578034403e-21 -1.5707963267948966 8.881784197001252e-16 -1.5707963267948966 4.440875157841681e-16 8.881784197001252e-16 0.0 0.0 0.0 0.0 0.0 0.0 0.0 0.0 0.0 0.0 0.0 0.0 -3.3772808999808032e-21 -0.00012304933625273407 -5.92250689805951e-05 -7.234481927298475e-06 2.6683999294618843e-06 0.0 -3.711227380125871e-20 -0.0013533226466475993 -0.0006522996384345547 -6.102703187937665e-05 2.2665856960670114e-05 0.0 1.2159347534179688e-05 -1.5707759422114869 -3.445147967795492e-06 -1.5707994900145472 -4.3217335836231996e-05 -3.163014547169496e-06 0.0 0.0 -0.0 0.0 0.0 0.0 -0.1250322312116623 -0.15781378746032715 -0.15033851563930511 -0.05874958261847496 -0.004584949463605881 -0.03511098027229309 -3.3772808999808032e-21 -0.00012304933625273407 -5.92250689805951e-05 -7.234481927298475e-06 2.6683999294618843e-06 0.0 -0.0010550515507908682 -0.23365602482441605 1.0802958288958249 -0.005108772359536808 -2.2186779079888974 2.219337189129554 0.0 0.0 0.0 0.0 0.0 0.0 0.2707635842922241 -0.0832757445120857 -0.26914350486841404 -0.0019173789225704733 0.0049943922599520185 -0.009547618527895364 -0.0010369009249316316 -0.23365603829458223 1.0802958470402677 -0.00506264323746423 -2.2186881488822174 2.2193475361807398 0.0 0.0 0.0 0.0 0.0 0.0 0 27.25 27.25 27.0 31.5 33.5 34.25 0.417325 7 253 253 253 253 253 253 1 0.0 -9.251194953918457 0.13407529890537262 0.0 1.0 0.0 47.71464920043945 47.77644348144531 0.532641589641571 47.6279296875 47.64226531982422 47.584930419921875 47.513267517089844 47.6279296875 47.32693862915039 0 4 0.00031220079108607024
4035.439 6.776263578034403e-21 -1.5707963267948966 8.881784197001252e-16 -1.5707963267948966 4.440875157841681e-16 8.881784197001252e-16 0.0 0.0 0.0 0.0 0.0 0.0 0.0 0.0 0.0 0.0 0.0 0.0 1.3561387035911073e-20 -0.00012543905177153647 -2.2693810024065897e-05 -3.5074647257715696e-06 5.800182520943054e-07 0.0 1.490234112885589e-19 -0.001379605105872534 -0.00024994759448999996 -2.958749016029911e-05 4.926776761380807e-06 0.0 1.9179939044988714e-05 -1.5708066425719203 -3.4520523968240013e-06 -1.5707914325187922 -7.931386129200746e-06 -2.5097523824513246e-05 0.0 0.0 -0.0 0.0 0.0 0.0 -0.15919609367847443 -0.1277230679988861 -0.19530044496059418 -0.07283308357000351 -0.015269134193658829 -0.0483330637216568 1.3561387035911073e-20 -0.00012543905177153647 -2.2693810024065897e-05 -3.5074647257715696e-06 5.800182520943054e-07 0.0 -0.0010225304098743155 -0.2336560492918079 1.0802958637804674 -0.005012444361884649 -2.2186768495302194 2.21933621313176 0.0 0.0 0.0 0.0 0.0 0.0 0.2321603010066897 -0.11115913746613176 -0.36813092896735405 -0.008255572321658586 -0.0011877901505219653 -0.009625180527776785 -0.0010369009249316316 -0.23365603829458223 1.0802958470402677 -0.00506264323746423 -2.2186881488822174 2.2193475361807398 0.0 0.0 0.0 0.0 0.0 0.0 0 27.25 27.25 27.0 31.5 33.5 34.25 0.420685 7 253 253 253 253 253 253 1 -0.13407529890537262 -9.251194953918457 0.09576806426048279 0.0 1.0 0.0 47.72897720336914 47.782711029052734 0.6445410251617432 47.6279296875 47.65659713745117 47.584930419921875 47.5275993347168 47.6279296875 47.32693862915039 0 4 0.00027313208192936145
4035.5389999999998 6.776263578034403e-21 -1.5707963267948966 8.881784197001252e-16 -1.5707963267948966 4.440875157841681e-16 8.881784197001252e-16 0.0 0.0 0.0 0.0 0.0 0.0 0.0 0.0 0.0 0.0 0.0 0.0 -9.119455419276157e-21 -0.0001229726040037349 -5.932375279371627e-05 -7.465475391654763e-06 2.665770125531708e-06 0.0 -1.0021189597285616e-19 -0.0013524786735965202 -0.0006533865019277337 -6.297559296069321e-05 2.2643520166825323e-05 0.0 2.4536598175473046e-07 -1.570822378198141 -1.538848846394103e-05 -1.570806165734762 -7.931386129200746e-06 -1.8421803609669496e-05 0.0 0.0 -0.0 0.0 0.0 0.0 -0.171915665268898 -0.19465796649456024 -0.1486371010541916 -0.05573655292391777 -0.002355773001909256 -0.04451724886894226 -9.119455419276157e-21 -0.0001229726040037349 -5.932375279371627e-05 -7.465475391654763e-06 2.665770125531708e-06 0.0 -0.0010051669894151323 -0.23365603031134802 1.0802959031697452 -0.004993741153303349 -2.218649478799725 2.2193089633738654 0.0 0.0 0.0 0.0 0.0 0.0 0.35945064562786894 -0.044373795379232195 -0.07676154064590303 -0.00011223642273304265 -0.0050891142897458875 -0.011171234524560203 -0.0010369009249316316 -0.23365603829458223 1.0802958470402677 -0.00506264323746423 -2.2186881488822174 2.2193475361807398 0.0 0.0 0.0 0.0 0.0 0.0 0 27.25 27.25 27.0 31.5 33.5 34.25 0.419949 7 253 253 253 253 253 253 1 -0.038307227194309235 -9.251194953918457 0.13407529890537262 0.0 1.0 0.0 47.72180938720703 47.770172119140625 0.5953052639961243 47.6279296875 47.64226531982422 47.57059860229492 47.5275993347168 47.6279296875 47.34127426147461 0 4 0.0001690286626399029
4035.6389999999997 6.776263578034403e-21 -1.5707963267948966 8.881784197001252e-16 -1.5707963267948966 4.440875157841681e-16 8.881784197001252e-16 0.0 0.0 0.0 0.0 0.0 0.0 0.0 0.0 0.0 0.0 0.0 0.0 3.6541241247122996e-22 -4.255181920598261e-05 -5.4369673307519406e-05 -9.429323654330801e-06 2.6391030587546993e-06 0.0 4.0154450122798486e-21 -0.00046799389885690665 -0.0005988227182354672 -7.954178533755875e-05 2.2417005600809478e-05 0.0 -1.5083943502247621e-05 -1.5707690414240751 1.5083943502247621e-05 -1.5707994900145472 -1.5083943502247621e-05 1.1973752407357097e-05 0.0 0.0 -0.0 0.0 0.0 0.0 -0.15215493738651276 -0.15459901094436646 -0.1328611820936203 -0.0689154863357544 -0.002519402652978897 -0.0398121103644371 3.6541241247122996e-22 -4.255181920598261e-05 -5.4369673307519406e-05 -9.429323654330801e-06 2.6391030587546993e-06 0.0 -0.0010740770548315977 -0.23365602280904196 1.080295791528732 -0.005152897363472001 -2.218698644979122 2.2193578232258555 0.0 0.0 0.0 0.0 0.0 0.0 0.23762310945783094 0.027998835194016344 -0.46405580592391255 -0.010586557684624097 0.0031287152404227843 -0.008698008193001578 -0.0010369009249316316 -0.23365603829458223 1.0802958470402677 -0.00506264323746423 -2.2186881488822174 2.2193475361807398 0.0 0.0 0.0 0.0 0.0 0.0 0 27.25 27.25 27.0 31.5 33.5 34.25 0.418493 7 253 253 253 253 253 253 1 -0.019153613597154617 -9.308656692504883 0.1149216815829277 0.0 1.0 0.0 47.708377838134766 47.75763702392578 0.5304035544395447 47.61359405517578 47.6279296875 47.57059860229492 47.498931884765625 47.61359405517578 47.32693862915039 0 4 0.00020864271694639078
